!!!!SEGMENT: pl-wumfc--n18053--001-013_noskowski-zygmunt--livia-quintilla-akt-drugi-scena-i.krn
!!!cenid: 18xx:4229
!!!COM: Noskowski, Zygmunt
!!!COM-rismID: pe106604
!!!CDT: 1846/05/02-1909/07/23
!!!CNT: Polish
!!!OPR: Livia Quintilla
!!!OTL: Akt drugi - Scena I
!!!OMV: 013
!!!PDT: 1898
!!!AGN:
!!!SMS-siglum: PL-Wumfc
!!!SMS-shelfmark: N18053
!!!SMS-shelfwork: 001-013 M
!!!SMS-variant:
!!!SMS-altvar:
!!!NIFC-rismSourceID: 1001161204
!!!NIFC-rismChildID: 1001161204
!!!NIFC-islandoraID: pl-wumfc:1491
!!!URL-pdf-islandora: https://repozytorium.nifc.pl/islandora/object/pl-wumfc:1491/datastream/PDF/view
!!!URL-scan: https://polish.musicsources.pl/pl/lokalizacje/galeria/druki-muzyczne/11843/45 @EN{Scan on Polish Music Sources Website} @PL{Skany w portalu Dziedzictwo Muzyki Polskiej w otwartym dostępie}
!!!IIIF:
!!!ONB-nifc: Skany 0045-0049
!!!AIN: 1 alto 1 piano 3 soprn
!!!key: F
**kern	**kern	**dynam	**kern	**text	**dynam	**kern	**text	**text	**dynam	**kern	**text	**dynam	**kern	**text	**dynam
*part5	*part5	*part5	*part4	*part4	*part4	*part3	*part3	*part3	*part3	*part2	*part2	*part2	*part1	*part1	*part1
*staff6	*staff5	*	*staff4	*staff4	*	*staff3	*staff3	*staff3	*	*staff2	*staff2	*	*staff1	*staff1	*
*I"PIANO.	*I"PIANO.	*	*I"Alty.	*	*	*I"Soprany.	*	*	*	*I"Livia.	*	*	*I"Selene.	*	*
*I'	*I'	*	*I'	*	*	*I'	*	*	*	*I'Liv.	*	*	*I'S.	*	*
*Ipiano	*Ipiano	*	*Ialto	*	*	*Isoprn	*	*	*	*Isoprn	*	*	*Isoprn	*	*
*ICklav	*ICklav	*	*ICvox	*	*	*ICvox	*	*	*	*ICvox	*	*	*ICvox	*	*
*IGacmp	*IGacmp	*	*IGcoro	*	*	*IGcoro	*	*	*	*IGsolo	*	*	*IGsolo	*	*
*	*	*	*scale:85%	*	*	*scale:85%	*	*	*	*	*	*	*	*	*
*clefF4	*clefG2	*	*clefG2	*	*	*clefG2	*	*	*	*clefG2	*	*	*clefG2	*	*
*k[b-]	*k[b-]	*	*k[b-]	*	*	*k[b-]	*	*	*	*k[b-]	*	*	*k[b-]	*	*
*F:	*F:	*	*F:	*	*	*F:	*	*	*	*F:	*	*	*F:	*	*
*M3/4	*M3/4	*	*M3/4	*	*	*M3/4	*	*	*	*M3/4	*	*	*M3/4	*	*
=-	=-	=-	=-	=-	=-	=-	=-	=-	=-	=-	=-	=-	=-	=-	=-
!	!LO:TX:a:B:t=Andante semplice e con moto.	!	!	!	!	!	!	!	!	!	!	!	!	!	!
(4A\	(>4a 4f 4c/	p	4ryy	.	.	4ryy	.	.	.	4ryy	.	.	4ryy	.	.
=1	=1	=1	=1	=1	=1	=1	=1	=1	=1	=1	=1	=1	=1	=1	=1
4G\	4b- 4g 4d/	.	2.ryy	.	.	2.ryy	.	.	.	2.ryy	.	.	2.ryy	.	.
4A\	4a 4f 4c/	.	.	.	.	.	.	.	.	.	.	.	.	.	.
4G\	4b- 4g 4d/	.	.	.	.	.	.	.	.	.	.	.	.	.	.
=2	=2	=2	=2	=2	=2	=2	=2	=2	=2	=2	=2	=2	=2	=2	=2
*	*^	*	*	*	*	*	*	*	*	*	*	*	*	*	*
4F\	4cc/	2a 2f\	.	2.ryy	.	.	2.ryy	.	.	.	2.ryy	.	.	2.ryy	.	.
4D\)	4dd/)	.	.	.	.	.	.	.	.	.	.	.	.	.	.	.
(4c\	(>4a 4f 4d/	4ryy	.	.	.	.	.	.	.	.	.	.	.	.	.	.
*	*v	*v	*	*	*	*	*	*	*	*	*	*	*	*	*	*
=3	=3	=3	=3	=3	=3	=3	=3	=3	=3	=3	=3	=3	=3	=3	=3
4B-\	4g 4f 4d/	.	2.ryy	.	.	2.ryy	.	.	.	2.ryy	.	.	2.ryy	.	.
4A\	4a 4f 4c/	.	.	.	.	.	.	.	.	.	.	.	.	.	.
8G\L	4b- 4g 4d/	.	.	.	.	.	.	.	.	.	.	.	.	.	.
8F\J	.	.	.	.	.	.	.	.	.	.	.	.	.	.	.
=4	=4	=4	=4	=4	=4	=4	=4	=4	=4	=4	=4	=4	=4	=4	=4
*	*^	*	*	*	*	*	*	*	*	*	*	*	*	*	*
8E\L	4dd 4b- 4g 4d/	4ryy	.	2.ryy	.	.	2.ryy	.	.	.	2.ryy	.	.	2.ryy	.	.
8D\J	.	.	.	.	.	.	.	.	.	.	.	.	.	.	.	.
2GG/)	4ff/	2b- 2f\	.	.	.	.	.	.	.	.	.	.	.	.	.	.
.	4ee/)	.	.	.	.	.	.	.	.	.	.	.	.	.	.	.
*	*v	*v	*	*	*	*	*	*	*	*	*	*	*	*	*	*
=5	=5	=5	=5	=5	=5	=5	=5	=5	=5	=5	=5	=5	=5	=5	=5
(4C/	(4cc 4g 4e/	<	2.ryy	.	.	2.ryy	.	.	.	2.ryy	.	.	2.ryy	.	.
2AA/)	2dd 2a 2f/)	[[	.	.	.	.	.	.	.	.	.	.	.	.	.
=6	=6	=6	=6	=6	=6	=6	=6	=6	=6	=6	=6	=6	=6	=6	=6
(2BB-/	(4cc 4g 4e/	>	2.ryy	.	.	2.ryy	.	.	.	2.ryy	.	.	2.ryy	.	.
.	2a 2f 2d/)	]]	.	.	.	.	.	.	.	.	.	.	.	.	.
4BBn/)	.	.	.	.	.	.	.	.	.	.	.	.	.	.	.
=7	=7	=7	=7	=7	=7	=7	=7	=7	=7	=7	=7	=7	=7	=7	=7
2.GG/	(4f 4Bn 4A/	.	2.ryy	.	.	2.ryy	.	.	.	2.ryy	.	.	2.ryy	.	.
.	4a 4f 4B/	.	.	.	.	.	.	.	.	.	.	.	.	.	.
.	4f 4B 4A/)	.	.	.	.	.	.	.	.	.	.	.	.	.	.
!!LO:LB:g=original
=8	=8	=8	=8	=8	=8	=8	=8	=8	=8	=8	=8	=8	=8	=8	=8
!	!	!	!	!	!	!	!	!	!	!	!	!	!LO:TX:a:B:t=Selene.	!	!
2.C 2.CC/	4.cc: 4.e: 4.B-X: 4.G:/	.	2.ryy	.	.	2.ryy	.	.	.	2.ryy	.	.	4r	.	.
.	.	.	.	.	.	.	.	.	.	.	.	.	4r	.	.
.	8d 8B- 8F/	.	.	.	.	.	.	.	.	.	.	.	.	.	.
.	4c 4B- 4E/	.	.	.	.	.	.	.	.	.	.	.	4cc\	O	p
=9	=9	=9	=9	=9	=9	=9	=9	=9	=9	=9	=9	=9	=9	=9	=9
[2.C [2.FF/	2c 2A 2F/	p	2.ryy	.	.	2.ryy	.	.	.	2.ryy	.	.	4dd\	dzię-	.
.	.	.	.	.	.	.	.	.	.	.	.	.	4ee\	-ki	.
.	4e 4B- 4G/	.	.	.	.	.	.	.	.	.	.	.	4cc\	wam	.
=10	=10	=10	=10	=10	=10	=10	=10	=10	=10	=10	=10	=10	=10	=10	=10
2.C] 2.FF/]	4c 4A 4F/	.	2.ryy	.	.	2.ryy	.	.	.	2.ryy	.	.	2.ff\	bo-	.
.	4b- 4f 4d/	.	.	.	.	.	.	.	.	.	.	.	.	.	.
.	4g 4f 4B-/	.	.	.	.	.	.	.	.	.	.	.	.	.	.
=11	=11	=11	=11	=11	=11	=11	=11	=11	=11	=11	=11	=11	=11	=11	=11
(4C 4FF/	(4a 4f 4c/	.	2.ryy	.	.	2.ryy	.	.	.	2.ryy	.	.	[2.a/	-gi!	.
4F 4FF/	4c 4A/	.	.	.	.	.	.	.	.	.	.	.	.	.	.
4D 4DD/	4f 4d 4A/	.	.	.	.	.	.	.	.	.	.	.	.	.	.
=12	=12	=12	=12	=12	=12	=12	=12	=12	=12	=12	=12	=12	=12	=12	=12
4AA 4AAA/	4a 4e 4c/	.	2.ryy	.	.	2.ryy	.	.	.	2.ryy	.	.	4a/]	.	.
4D 4DD/	4f 4d 4A/	.	.	.	.	.	.	.	.	.	.	.	4r	.	.
4AA 4AAA/)	4a 4e 4c/)	.	.	.	.	.	.	.	.	.	.	.	4a/	Spo-	.
=13	=13	=13	=13	=13	=13	=13	=13	=13	=13	=13	=13	=13	=13	=13	=13
(4GG 4GGG/	(>4b- 4g 4d/	.	2.ryy	.	.	2.ryy	.	.	.	2.ryy	.	.	4b-\	-koj-	.
4AA 4AAA/	4a 4e 4c/	.	.	.	.	.	.	.	.	.	.	.	4a/	-nie	.
4GG 4GGG/	4b- 4g 4d/	.	.	.	.	.	.	.	.	.	.	.	4b-\	od-	.
=14	=14	=14	=14	=14	=14	=14	=14	=14	=14	=14	=14	=14	=14	=14	=14
*	*^	*	*	*	*	*	*	*	*	*	*	*	*	*	*
4FF 4FFF/	4cc/	2a 2f\	.	2.ryy	.	.	2.ryy	.	.	.	2.ryy	.	.	(4cc\	-dy-	.
4D 4DD/)	4dd/)	.	.	.	.	.	.	.	.	.	.	.	.	4dd\	.	.
(8CL 8CC/	(4f 4d 4A/	4ryy	.	.	.	.	.	.	.	.	.	.	.	4f/)	.	.
8BB-J 8BBB-/	.	.	.	.	.	.	.	.	.	.	.	.	.	.	.	.
*	*v	*v	*	*	*	*	*	*	*	*	*	*	*	*	*	*
=15	=15	=15	=15	=15	=15	=15	=15	=15	=15	=15	=15	=15	=15	=15	=15
4AA 4AAA/	4cc 4f 4c/	.	2.ryy	.	.	2.ryy	.	.	.	2.ryy	.	.	[2.cc\	-cha	.
4BB- 4BBB-/	4e 4c 4G/	.	.	.	.	.	.	.	.	.	.	.	.	.	.
4AA 4AAA/	4f 4c 4A/	.	.	.	.	.	.	.	.	.	.	.	.	.	.
!!LO:LB:g=original
=16	=16	=16	=16	=16	=16	=16	=16	=16	=16	=16	=16	=16	=16	=16	=16
4EE 4EEE/	4g 4c 4G/	.	2.ryy	.	.	2.ryy	.	.	.	2.ryy	.	.	4cc\]	.	.
4FF 4FFF/)	4a 4c 4F/)	.	.	.	.	.	.	.	.	.	.	.	4r	.	.
4r	4cc 4a 4f/	.	.	.	.	.	.	.	.	.	.	.	4cc\	I	.
=17	=17	=17	=17	=17	=17	=17	=17	=17	=17	=17	=17	=17	=17	=17	=17
(4C/	4ee-X 4a-X 4e-X/	.	2.ryy	.	.	2.ryy	.	.	.	2.ryy	.	.	4ee-X\	zni-	.
4BB-/	4dd-X 4a- 4f/	.	.	.	.	.	.	.	.	.	.	.	4dd-X\	-ka	.
4F\)	4a- 4d-X/	.	.	.	.	.	.	.	.	.	.	.	4a-X/	już	.
=18	=18	=18	=18	=18	=18	=18	=18	=18	=18	=18	=18	=18	=18	=18	=18
(4.E-X\	4cc 4a-X 4dn/	.	2.ryy	.	.	2.ryy	.	.	.	2.ryy	.	.	4cc\	z_twa-	.
.	4b- 4g 4e-X/	.	.	.	.	.	.	.	.	.	.	.	4b-\	-rzy	.
8D-X/L	.	.	.	.	.	.	.	.	.	.	.	.	.	.	.
8C/	8r	.	.	.	.	.	.	.	.	.	.	.	8r	.	.
8BB-/J)	8dd-X 8b- 8f/	.	.	.	.	.	.	.	.	.	.	.	8dd-X\	ten	.
=19	=19	=19	=19	=19	=19	=19	=19	=19	=19	=19	=19	=19	=19	=19	=19
*	*^	*	*	*	*	*	*	*	*	*	*	*	*	*	*
(2AAn/	(4ff 4dd-X/	2f\	<	2.ryy	.	.	2.ryy	.	.	.	2.ryy	.	.	4ff\	wy-	.
.	4ee-X 4cc/)	.	.	.	.	.	.	.	.	.	.	.	.	4ee-X\	-raz	.
4BB-/)	4dd- 4b- 4f/	4ryy	[[	.	.	.	.	.	.	.	.	.	.	4dd-X\	bo-	.
*	*v	*v	*	*	*	*	*	*	*	*	*	*	*	*	*	*
=20	=20	=20	=20	=20	=20	=20	=20	=20	=20	=20	=20	=20	=20	=20	=20
!	!LO:SIC:v:s=(4gg 4dd- 4b-\	!	!	!	!	!	!	!	!	!	!	!	!	!	!LO:DY:rj
2.GG/	(4gg 4dd 4b-\	f	2.ryy	.	.	2.ryy	.	.	.	2.ryy	.	.	(2gg\	-leś-	f
.	4b- 4f 4d-X/	.	.	.	.	.	.	.	.	.	.	.	.	.	.
!	!LO:SIC:v:s=4dd- 4b- 4f/)	!	!	!	!	!	!	!	!	!	!	!	!	!	!
.	4dd 4b- 4f/)	.	.	.	.	.	.	.	.	.	.	.	4dd-X\)	.	.
=21	=21	=21	=21	=21	=21	=21	=21	=21	=21	=21	=21	=21	=21	=21	=21
(4C 4CC/	(4cc 4g 4en/	.	2.ryy	.	.	2.ryy	.	.	.	2.ryy	.	.	[2.cc\	-ci.	.
4BB- 4BBB-/	4g 4e 4c/	.	.	.	.	.	.	.	.	.	.	.	.	.	.
4AA 4AAA/)	4g#X 4e 4c/)	.	.	.	.	.	.	.	.	.	.	.	.	.	.
=22	=22	=22	=22	=22	=22	=22	=22	=22	=22	=22	=22	=22	=22	=22	=22
(4FF 4FFF/	(4a 4e 4c/	.	2.ryy	.	.	2.ryy	.	.	.	2.ryy	.	.	4cc\]	.	.
4GGn 4GGGn/	4gn 4d 4B-/	.	.	.	.	.	.	.	.	.	.	.	4r	.	.
4C 4CC/)	4e 4c 4G/)	.	.	.	.	.	.	.	.	.	.	.	4cc\	Niech	p
=23	=23	=23	=23	=23	=23	=23	=23	=23	=23	=23	=23	=23	=23	=23	=23
2.C 2.FF/	(4f 4d 4A/	p	2.ryy	.	.	2.ryy	.	.	.	2.ryy	.	.	4ddn\	pieśń	.
.	4e 4c 4G/	.	.	.	.	.	.	.	.	.	.	.	4ee\	ją	.
.	4g 4e 4B-/)	.	.	.	.	.	.	.	.	.	.	.	4cc\	ko-	.
!!LO:LB:g=original
=24	=24	=24	=24	=24	=24	=24	=24	=24	=24	=24	=24	=24	=24	=24	=24
4.F 4.FF/	(4f 4c 4A/	.	2.ryy	.	.	2.ryy	.	.	.	2.ryy	.	.	4ff\	-ły-	.
.	4a 4f 4c/	.	.	.	.	.	.	.	.	.	.	.	4a/	-sze	.
8E 8EE/	.	.	.	.	.	.	.	.	.	.	.	.	.	.	.
4D 4DD/	4dd 4a 4f/)	.	.	.	.	.	.	.	.	.	.	.	4ff\	po-	.
=25	=25	=25	=25	=25	=25	=25	=25	=25	=25	=25	=25	=25	=25	=25	=25
!LO:SIC:v:s=(4GG# 4GGG#/	!	!	!	!	!	!	!	!	!	!	!	!	!	!	!
(4GG 4GGG/	(4ee 4g#X 4e/	.	2.ryy	.	.	2.ryy	.	.	.	2.ryy	.	.	[2.ee\	-wiew-	.
4E 4EE/	4g# 4d 4G#X/	.	.	.	.	.	.	.	.	.	.	.	.	.	.
!LO:SIC:v:s=4GG# 4GGG#/)	!	!	!	!	!	!	!	!	!	!	!	!	!	!	!
4GG 4GGG/)	4ee 4g# 4e/)	.	.	.	.	.	.	.	.	.	.	.	.	.	.
=26	=26	=26	=26	=26	=26	=26	=26	=26	=26	=26	=26	=26	=26	=26	=26
(4BBn 4BBBn/	(4g#X 4d 4G#X/	.	2.ryy	.	.	2.ryy	.	.	.	2.ryy	.	.	4ee\]	.	.
4C#X 4CC#X/)	4a 4gn 4e 4A/)	.	.	.	.	.	.	.	.	.	.	.	4a/	-na	.
4AA 4AAA/	4gg 4cc#X 4g\	.	.	.	.	.	.	.	.	.	.	.	4ff\	a	.
=27	=27	=27	=27	=27	=27	=27	=27	=27	=27	=27	=27	=27	=27	=27	=27
[2.D [2.DD/	(4cc#X 4g 4e/	.	2.ryy	.	.	2.ryy	.	.	.	2.ryy	.	.	(2cc#X\	ci-	.
.	4ee 4b- 4g\	.	.	.	.	.	.	.	.	.	.	.	.	.	.
.	4cc# 4g 4e/)	.	.	.	.	.	.	.	.	.	.	.	4ee\)	.	.
=28	=28	=28	=28	=28	=28	=28	=28	=28	=28	=28	=28	=28	=28	=28	=28
4D] 4DD/]	(4dd 4a 4f/	<	2.ryy	.	.	2.ryy	.	.	.	2.ryy	.	.	4dd\	-cha	.
(4F 4FF/	4a 4f 4d/	.	.	.	.	.	.	.	.	.	.	.	4r	.	.
!	!	!	!	!	!	!	!	!	!	!	!	!	!	!	!LO:DY:cj
4C 4CC/)	4dd 4a 4f/)	[[	.	.	.	.	.	.	.	.	.	.	4dd\	I	mf
=29	=29	=29	=29	=29	=29	=29	=29	=29	=29	=29	=29	=29	=29	=29	=29
(4BB- 4BBB-/	(4gg 4ff 4dd 4g\	mf	2.ryy	.	.	2.ryy	.	.	.	2.ryy	.	.	[2.gg\	ser-	.
4F 4FF/	4g 4d 4B- 4G/	.	.	.	.	.	.	.	.	.	.	.	.	.	.
4D 4DD/)	4b- 4g 4f 4B-/)	.	.	.	.	.	.	.	.	.	.	.	.	.	.
=30	=30	=30	=30	=30	=30	=30	=30	=30	=30	=30	=30	=30	=30	=30	=30
(2BB- 2BBB-/	(2g 2f 2d 2G/	.	2.ryy	.	.	2.ryy	.	.	.	2.ryy	.	.	4gg\]	.	.
.	.	.	.	.	.	.	.	.	.	.	.	.	4g/	-ce	.
4AA 4AAA/)	8aL 8f 8d 8A/	.	.	.	.	.	.	.	.	.	.	.	(8a/L	stros-	.
.	8b-J 8B-)	.	.	.	.	.	.	.	.	.	.	.	8b-/J)	.	.
=31	=31	=31	=31	=31	=31	=31	=31	=31	=31	=31	=31	=31	=31	=31	=31
(4GG 4GGG/	(4dd 4b- 4f 4d/	.	2.ryy	.	.	2.ryy	.	.	.	2.ryy	.	.	4dd\	-ka-	.
!	!LO:SIC:v:s=4g#X 4f 4B 4G#X/	!	!	!	!	!	!	!	!	!	!	!	!	!	!
4D 4DD/	4g#X 4f 4B- 4G#X/	.	.	.	.	.	.	.	.	.	.	.	4g#X/	-ne	.
4C 4CC/)	4a 4f 4c 4A/)	.	.	.	.	.	.	.	.	.	.	.	4a/	niech	.
!!LO:LB:g=original
=32	=32	=32	=32	=32	=32	=32	=32	=32	=32	=32	=32	=32	=32	=32	=32
2.GGn 2.GGGn/	(>4a 4f 4d 4B-/	.	2.ryy	.	.	2.ryy	.	.	.	2.ryy	.	.	([2.cc\	pieś-	.
.	4f 4d 4B- 4Gn/	.	.	.	.	.	.	.	.	.	.	.	.	.	.
.	4a 4f 4d 4B-/	.	.	.	.	.	.	.	.	.	.	.	.	.	.
=33	=33	=33	=33	=33	=33	=33	=33	=33	=33	=33	=33	=33	=33	=33	=33
2.C 2.CC/	4f 4d 4B- 4F/	.	2.ryy	.	.	2.ryy	.	.	.	2.ryy	.	.	2cc\]	.	.
.	4d 4B- 4G 4F/	.	.	.	.	.	.	.	.	.	.	.	.	.	.
.	4e 4B- 4G/)	.	.	.	.	.	.	.	.	.	.	.	4e/)	.	.
=34	=34	=34	=34	=34	=34	=34	=34	=34	=34	=34	=34	=34	=34	=34	=34
[2.C [2.FF/	(4f 4c 4A/	p	2.ryy	.	.	2.ryy	.	.	.	2.ryy	.	.	2f/	-ci.	.
.	4b- 4f 4d/	.	.	.	.	.	.	.	.	.	.	.	.	.	.
.	4a 4f 4c/)	.	.	.	.	.	.	.	.	.	.	.	4r	.	.
=35	=35	=35	=35	=35	=35	=35	=35	=35	=35	=35	=35	=35	=35	=35	=35
2.C] 2.FF/]	(4dd 4b- 4e/	.	2.ryy	.	.	2.ryy	.	.	.	2.ryy	.	.	2.r	.	.
.	4f 4d 4Bn/	.	.	.	.	.	.	.	.	.	.	.	.	.	.
.	4g 4e 4B-X/)	.	.	.	.	.	.	.	.	.	.	.	.	.	.
=36	=36	=36	=36	=36	=36	=36	=36	=36	=36	=36	=36	=36	=36	=36	=36
(8FL 8FF/	(4a 4f 4A/	.	2.ryy	.	.	2.ryy	.	.	.	2.ryy	.	.	2.r	.	.
8EJ 8EE/	.	.	.	.	.	.	.	.	.	.	.	.	.	.	.
4D 4DD/	4b- 4g 4f/	.	.	.	.	.	.	.	.	.	.	.	.	.	.
4C 4CC/)	4cc 4a 4e/)	.	.	.	.	.	.	.	.	.	.	.	.	.	.
=37	=37	=37	=37	=37	=37	=37	=37	=37	=37	=37	=37	=37	=37	=37	=37
*	*^	*	*	*	*	*	*	*	*	*	*	*	*	*	*
(8BB-L 8BBB-/	(4dd/	2.b- 2.f\	mf	2.ryy	.	.	2.ryy	.	.	.	2.ryy	.	.	2.r	.	.
8AAJ 8AAA/	.	.	.	.	.	.	.	.	.	.	.	.	.	.	.	.
2GG 2GGG/)	4ff/	.	.	.	.	.	.	.	.	.	.	.	.	.	.	.
.	4ee/)	.	.	.	.	.	.	.	.	.	.	.	.	.	.	.
*	*v	*v	*	*	*	*	*	*	*	*	*	*	*	*	*	*
=38	=38	=38	=38	=38	=38	=38	=38	=38	=38	=38	=38	=38	=38	=38	=38
(4C 4CC/	(4cc 4g 4e/	.	2.ryy	.	.	2.ryy	.	.	.	2.ryy	.	.	2.r	.	.
2AA 2AAA/)	2dd 2a 2f/)	.	.	.	.	.	.	.	.	.	.	.	.	.	.
=39	=39	=39	=39	=39	=39	=39	=39	=39	=39	=39	=39	=39	=39	=39	=39
(2BB- 2BBB-/	(4cc 4g 4e/	.	2.ryy	.	.	2.ryy	.	.	.	2.ryy	.	.	2.r	.	.
.	2a 2f 2d/)	.	.	.	.	.	.	.	.	.	.	.	.	.	.
4BBn 4BBBn/)	.	.	.	.	.	.	.	.	.	.	.	.	.	.	.
!!LO:PB:g=original
=40	=40	=40	=40	=40	=40	=40	=40	=40	=40	=40	=40	=40	=40	=40	=40
2.GG 2.GGG/	(4f 4B 4A/	>	2.ryy	.	.	2.ryy	.	.	.	2.ryy	.	.	2.r	.	.
.	4a 4f 4B/	.	.	.	.	.	.	.	.	.	.	.	.	.	.
.	4f 4B 4A/)	]	.	.	.	.	.	.	.	.	.	.	.	.	.
=41	=41	=41	=41	=41	=41	=41	=41	=41	=41	=41	=41	=41	=41	=41	=41
4C 4CC/	(8eL 8B-X 8G/	p	2.ryy	.	.	2.ryy	.	.	.	2.ryy	.	.	4r	.	.
.	8d/	.	.	.	.	.	.	.	.	.	.	.	.	.	.
4r	8e/	.	.	.	.	.	.	.	.	.	.	.	4r	.	.
.	8g/	.	.	.	.	.	.	.	.	.	.	.	.	.	.
4r	8cc/	.	.	.	.	.	.	.	.	.	.	.	4cc\	Ze-	p
.	8e/J)	.	.	.	.	.	.	.	.	.	.	.	.	.	.
=42	=42	=42	=42	=42	=42	=42	=42	=42	=42	=42	=42	=42	=42	=42	=42
2.C 2.FF/	(8fL 8A/	.	2.ryy	.	.	2.ryy	.	.	.	2.ryy	.	.	4dd\	-mdla-	.
.	8d/	.	.	.	.	.	.	.	.	.	.	.	.	.	.
.	8e 8G/	.	.	.	.	.	.	.	.	.	.	.	4ee\	-łą	.
.	8c/	.	.	.	.	.	.	.	.	.	.	.	.	.	.
.	8g 8B-/	.	.	.	.	.	.	.	.	.	.	.	4cc\	zbo-	.
.	8e/J)	.	.	.	.	.	.	.	.	.	.	.	.	.	.
=43	=43	=43	=43	=43	=43	=43	=43	=43	=43	=43	=43	=43	=43	=43	=43
2.F 2.FF/	(8fL 8A/	.	2.ryy	.	.	2.ryy	.	.	.	2.ryy	.	.	2.ff\	-la-	.
.	8G#X/	.	.	.	.	.	.	.	.	.	.	.	.	.	.
.	8A/	.	.	.	.	.	.	.	.	.	.	.	.	.	.
.	8B/	.	.	.	.	.	.	.	.	.	.	.	.	.	.
.	8c/	.	.	.	.	.	.	.	.	.	.	.	.	.	.
.	8f/J)	.	.	.	.	.	.	.	.	.	.	.	.	.	.
=44	=44	=44	=44	=44	=44	=44	=44	=44	=44	=44	=44	=44	=44	=44	=44
2.D-X 2.DD-X/	(8a/L	.	2.ryy	.	.	2.ryy	.	.	.	2.ryy	.	.	[2.a/	-łą	.
.	8f/	.	.	.	.	.	.	.	.	.	.	.	.	.	.
.	8d-X/	.	.	.	.	.	.	.	.	.	.	.	.	.	.
.	8Bn/	.	.	.	.	.	.	.	.	.	.	.	.	.	.
.	8d-/	.	.	.	.	.	.	.	.	.	.	.	.	.	.
.	8f/J)	.	.	.	.	.	.	.	.	.	.	.	.	.	.
=45	=45	=45	=45	=45	=45	=45	=45	=45	=45	=45	=45	=45	=45	=45	=45
2F 2FF/	(8a/L	.	2.ryy	.	.	2.ryy	.	.	.	2.ryy	.	.	4a/]	.	.
.	8f/	.	.	.	.	.	.	.	.	.	.	.	.	.	.
.	8c/	.	.	.	.	.	.	.	.	.	.	.	4r	.	.
.	8A/	.	.	.	.	.	.	.	.	.	.	.	.	.	.
4r	8c/	.	.	.	.	.	.	.	.	.	.	.	4a/	u-	.
.	8f/J)	.	.	.	.	.	.	.	.	.	.	.	.	.	.
!!LO:LB:g=original
=46	=46	=46	=46	=46	=46	=46	=46	=46	=46	=46	=46	=46	=46	=46	=46
4E 4EE/	(8b-L 8dn/	.	2.ryy	.	.	2.ryy	.	.	.	2.ryy	.	.	4b-\	-nio-	.
.	8g/	.	.	.	.	.	.	.	.	.	.	.	.	.	.
4F 4FF/	8a 8c/	.	.	.	.	.	.	.	.	.	.	.	4a/	-słam	.
.	8f/	.	.	.	.	.	.	.	.	.	.	.	.	.	.
4E 4EE/	8b- 8d/	.	.	.	.	.	.	.	.	.	.	.	4b-\	na	.
.	8g/J)	.	.	.	.	.	.	.	.	.	.	.	.	.	.
=47	=47	=47	=47	=47	=47	=47	=47	=47	=47	=47	=47	=47	=47	=47	=47
(4E-X 4EE-X/	(8ccL 8f/	.	2.ryy	.	.	2.ryy	.	.	.	2.ryy	.	.	(4cc\	rę-	.
.	8a/	.	.	.	.	.	.	.	.	.	.	.	.	.	.
4D 4DD/	8b-/	.	.	.	.	.	.	.	.	.	.	.	4dd\	.	.
.	8f/	.	.	.	.	.	.	.	.	.	.	.	.	.	.
4BB- 4BBB-/)	8d/	.	.	.	.	.	.	.	.	.	.	.	4f/)	.	.
.	8B-/J)	.	.	.	.	.	.	.	.	.	.	.	.	.	.
=48	=48	=48	=48	=48	=48	=48	=48	=48	=48	=48	=48	=48	=48	=48	=48
(4AA 4AAA/	(8f/L	.	2.ryy	.	.	2.ryy	.	.	.	2.ryy	.	.	[2.cc\	-ku,	.
.	8c/	.	.	.	.	.	.	.	.	.	.	.	.	.	.
4BB- 4BBB-/	8e/	.	.	.	.	.	.	.	.	.	.	.	.	.	.
.	8g/	.	.	.	.	.	.	.	.	.	.	.	.	.	.
4AA 4AAA/)	8f/	.	.	.	.	.	.	.	.	.	.	.	.	.	.
.	8c/J)	.	.	.	.	.	.	.	.	.	.	.	.	.	.
=49	=49	=49	=49	=49	=49	=49	=49	=49	=49	=49	=49	=49	=49	=49	=49
(2F 2FF/	(8a/L	.	2.ryy	.	.	2.ryy	.	.	.	2.ryy	.	.	4cc\]	.	.
.	8e/	.	.	.	.	.	.	.	.	.	.	.	.	.	.
.	8f/	.	.	.	.	.	.	.	.	.	.	.	4r	.	.
.	8a/	.	.	.	.	.	.	.	.	.	.	.	.	.	.
4E-X 4EE-X/)	8cc 8g-X/	.	.	.	.	.	.	.	.	.	.	.	4cc\	Niech	.
.	8a-X/J)	.	.	.	.	.	.	.	.	.	.	.	.	.	.
=50	=50	=50	=50	=50	=50	=50	=50	=50	=50	=50	=50	=50	=50	=50	=50
(4G-X 4GG-X/	(8ee-XL 8cc/	.	2.ryy	.	.	2.ryy	.	.	.	2.ryy	.	.	4ee-X\	w_lu-	.
.	8a-X 8e-X/	.	.	.	.	.	.	.	.	.	.	.	.	.	.
4F 4FF/	8dd-X 8b-/	.	.	.	.	.	.	.	.	.	.	.	4dd-X\	-bej	.
.	8a- 8d-X/	.	.	.	.	.	.	.	.	.	.	.	.	.	.
4D-X 4DD-X/)	8b- 8f/	.	.	.	.	.	.	.	.	.	.	.	(8b-\L	tu	.
.	8ccJ 8a-/)	.	.	.	.	.	.	.	.	.	.	.	8cc\J)	.	.
=51	=51	=51	=51	=51	=51	=51	=51	=51	=51	=51	=51	=51	=51	=51	=51
(4E-X 4EE-X/	(8b-L 8g-X/	.	2.ryy	.	.	2.ryy	.	.	.	2.ryy	.	.	4b-\	spocz-	<
.	8c/	.	.	.	.	.	.	.	.	.	.	.	.	.	.
4F 4FF/	8a-X 8f/	.	.	.	.	.	.	.	.	.	.	.	4a-X/	-nie	.
.	8d-X/	.	.	.	.	.	.	.	.	.	.	.	.	.	.
4C 4CC/)	8ee-X 8g-/	.	.	.	.	.	.	.	.	.	.	.	4ee-X\	u-	[[
.	8a-/J)	.	.	.	.	.	.	.	.	.	.	.	.	.	.
!!LO:LB:g=original
=52	=52	=52	=52	=52	=52	=52	=52	=52	=52	=52	=52	=52	=52	=52	=52
*	*^	*	*	*	*	*	*	*	*	*	*	*	*	*	*
(4AA-X 4AAA-X/	(2gg-X/	(8b-\L	.	2.ryy	.	.	2.ryy	.	.	.	2.ryy	.	.	(2gg-X\	-stro-	.
.	.	8cc\	.	.	.	.	.	.	.	.	.	.	.	.	.	.
4BB- 4BBB-/	.	8dd-X\	.	.	.	.	.	.	.	.	.	.	.	.	.	.
.	.	8g-X\	.	.	.	.	.	.	.	.	.	.	.	.	.	.
4C 4CC/)	8ff/L	8a-X\	.	.	.	.	.	.	.	.	.	.	.	8ff\L	.	.
.	8ee-X/J	8g-\J)	.	.	.	.	.	.	.	.	.	.	.	8ee-X\J)	.	.
=53	=53	=53	=53	=53	=53	=53	=53	=53	=53	=53	=53	=53	=53	=53	=53	=53
!	!LO:SIC:v:s=4dd-/)	!	!	!	!	!	!	!	!	!	!	!	!	!	!	!
(4D-X 4DD-X/	4dd/)	(8f\L	.	2.ryy	.	.	2.ryy	.	.	.	2.ryy	.	.	4dd-X\	-ni	.
.	.	8g-X\	.	.	.	.	.	.	.	.	.	.	.	.	.	.
4F 4FF/	4r	8a-X\	.	.	.	.	.	.	.	.	.	.	.	4r	.	.
.	.	8d-X\	.	.	.	.	.	.	.	.	.	.	.	.	.	.
4E-X 4EE-X/)	4an/	8c\	.	.	.	.	.	.	.	.	.	.	.	4an/	Niech	.
.	.	8g-\J)	.	.	.	.	.	.	.	.	.	.	.	.	.	.
=54	=54	=54	=54	=54	=54	=54	=54	=54	=54	=54	=54	=54	=54	=54	=54	=54
(2D-X 2DD-X/	(4cc/	8f\L	.	2.ryy	.	.	2.ryy	.	.	.	2.ryy	.	.	4cc\	tu	.
.	.	8g-X\	.	.	.	.	.	.	.	.	.	.	.	.	.	.
.	4b-/	8f\	.	.	.	.	.	.	.	.	.	.	.	4b-\	się	.
.	.	8B-\	.	.	.	.	.	.	.	.	.	.	.	.	.	.
4BB- 4BBB-/)	8g-X/L	8c\	.	.	.	.	.	.	.	.	.	.	.	(8g-X/L	o-	.
!	!	!LO:SIC:v:s=8d-\J	!	!	!	!	!	!	!	!	!	!	!	!	!	!
.	8f/J)	8d\J	.	.	.	.	.	.	.	.	.	.	.	8f/J)	.	.
*	*v	*v	*	*	*	*	*	*	*	*	*	*	*	*	*	*
=55	=55	=55	=55	=55	=55	=55	=55	=55	=55	=55	=55	=55	=55	=55	=55
(4AAn 4AAAn/	(8ccL 8e-X/	.	2.ryy	.	.	2.ryy	.	.	.	2.ryy	.	.	(2ee-X\	-bu-	.
.	8f/	.	.	.	.	.	.	.	.	.	.	.	.	.	.
4C 4CC/	8an/	.	.	.	.	.	.	.	.	.	.	.	.	.	.
.	8f/	.	.	.	.	.	.	.	.	.	.	.	.	.	.
4F 4FF/)	8e-/	.	.	.	.	.	.	.	.	.	.	.	8dd-X\L	.	.
.	8f/J)	.	.	.	.	.	.	.	.	.	.	.	8cc\J)	.	.
=56	=56	=56	=56	=56	=56	=56	=56	=56	=56	=56	=56	=56	=56	=56	=56
*	*^	*	*	*	*	*	*	*	*	*	*	*	*	*	*
(4G-X 4GG-X/	(8d-X/L	2ryy	.	2.ryy	.	.	2.ryy	.	.	.	2.ryy	.	.	4b-\	-dzi	.
.	8c/	.	.	.	.	.	.	.	.	.	.	.	.	.	.	.
4F 4FF/	8d-/	.	.	.	.	.	.	.	.	.	.	.	.	4r	.	.
.	8e/J	.	.	.	.	.	.	.	.	.	.	.	.	.	.	.
4AAn 4AAAn/)	4cc/	8f\L	.	.	.	.	.	.	.	.	.	.	.	4cc\	przy	.
.	.	8g-X\J)	.	.	.	.	.	.	.	.	.	.	.	.	.	.
=57	=57	=57	=57	=57	=57	=57	=57	=57	=57	=57	=57	=57	=57	=57	=57	=57
(4BB- 4BBB-/	(4dd-X/	8f\L	.	2.ryy	.	.	2.ryy	.	.	.	2.ryy	.	.	4dd-X\	pieś-	.
.	.	8g-X\	.	.	.	.	.	.	.	.	.	.	.	.	.	.
4E-X 4EE-X/	4a/	8f\	.	.	.	.	.	.	.	.	.	.	.	4a/	-ni	.
.	.	8c\	.	.	.	.	.	.	.	.	.	.	.	.	.	.
4D-X 4DD-X/)	4b-/)	8g-\	.	.	.	.	.	.	.	.	.	.	.	4b-\	tych	.
.	.	8f\J	.	.	.	.	.	.	.	.	.	.	.	.	.	.
*	*v	*v	*	*	*	*	*	*	*	*	*	*	*	*	*	*
!!LO:LB:g=original
=58	=58	=58	=58	=58	=58	=58	=58	=58	=58	=58	=58	=58	=58	=58	=58
2.GGn 2.GGGn/	(8d-X/L	.	2.ryy	.	.	2.ryy	.	.	.	2.ryy	.	.	[2.ff\	dźwię-	.
.	8f/	.	.	.	.	.	.	.	.	.	.	.	.	.	.
.	8cc/	.	.	.	.	.	.	.	.	.	.	.	.	.	.
.	8a/	.	.	.	.	.	.	.	.	.	.	.	.	.	.
.	8b-/	.	.	.	.	.	.	.	.	.	.	.	.	.	.
.	8f/J)	.	.	.	.	.	.	.	.	.	.	.	.	.	.
=59	=59	=59	=59	=59	=59	=59	=59	=59	=59	=59	=59	=59	=59	=59	=59
*	*^	*	*	*	*	*	*	*	*	*	*	*	*	*	*
4C 4CC/	(8c/L	2ryy	.	2.ryy	.	.	2.ryy	.	.	.	2.ryy	.	.	4ff\]	.	.
.	8gn/	.	.	.	.	.	.	.	.	.	.	.	.	.	.	.
4r	8b-/	.	.	.	.	.	.	.	.	.	.	.	.	4een\	-ku	.
.	8dn/J	.	.	.	.	.	.	.	.	.	.	.	.	.	.	.
4BB- 4BBB-/	4dd/	8e\L	.	.	.	.	.	.	.	.	.	.	.	4ddn\	Wśród	.
.	.	8g\J)	.	.	.	.	.	.	.	.	.	.	.	.	.	.
=60	=60	=60	=60	=60	=60	=60	=60	=60	=60	=60	=60	=60	=60	=60	=60	=60
2.AA 2.AAA/	(4bn/	(8d\L	.	2.ryy	.	.	2.ryy	.	.	.	2.ryy	.	.	4bn\	kwia-	.
.	.	8f\	.	.	.	.	.	.	.	.	.	.	.	.	.	.
.	4cc/	8c\	.	.	.	.	.	.	.	.	.	.	.	4cc\	-tów	.
.	.	8d\	.	.	.	.	.	.	.	.	.	.	.	.	.	.
.	4f/)	8c\	.	.	.	.	.	.	.	.	.	.	.	4f/	i	.
.	.	8d\J)	.	.	.	.	.	.	.	.	.	.	.	.	.	.
=61	=61	=61	=61	=61	=61	=61	=61	=61	=61	=61	=61	=61	=61	=61	=61	=61
(2GG 2GGG/	2.f/	(8B-X\L	.	2.ryy	.	.	2.ryy	.	.	.	2.ryy	.	.	[2.dd\	wo-	.
.	.	8c\	.	.	.	.	.	.	.	.	.	.	.	.	.	.
.	.	8d\	.	.	.	.	.	.	.	.	.	.	.	.	.	.
.	.	8c\	.	.	.	.	.	.	.	.	.	.	.	.	.	.
4GG#X 4GGG#X/)	.	8B-\	.	.	.	.	.	.	.	.	.	.	.	.	.	.
.	.	8d\J)	.	.	.	.	.	.	.	.	.	.	.	.	.	.
=62	=62	=62	=62	=62	=62	=62	=62	=62	=62	=62	=62	=62	=62	=62	=62	=62
(2AA 2AAA/	4dd/	(8f\L	.	2.ryy	.	.	2.ryy	.	.	.	2.ryy	.	.	4dd\]	.	.
.	.	8g\	.	.	.	.	.	.	.	.	.	.	.	.	.	.
.	4cc/	8a\	.	.	.	.	.	.	.	.	.	.	.	4cc\	-ni	.
.	.	8g\	.	.	.	.	.	.	.	.	.	.	.	.	.	.
4D 4DD/)	4bn/	8f\	.	.	.	.	.	.	.	.	.	.	.	4bn\	i	.
.	.	8g\J)	.	.	.	.	.	.	.	.	.	.	.	.	.	.
=63	=63	=63	=63	=63	=63	=63	=63	=63	=63	=63	=63	=63	=63	=63	=63	=63
2.C 2.CC/	2.ee/	(8a\L	.	2.ryy	.	.	2.ryy	.	.	.	2.ryy	.	.	[2.ee\	wo-	.
.	.	8e\	.	.	.	.	.	.	.	.	.	.	.	.	.	.
.	.	8f#X\	.	.	.	.	.	.	.	.	.	.	.	.	.	.
.	.	8g#X\	.	.	.	.	.	.	.	.	.	.	.	.	.	.
.	.	8a\	.	.	.	.	.	.	.	.	.	.	.	.	.	.
.	.	8bn\J)	.	.	.	.	.	.	.	.	.	.	.	.	.	.
!!LO:LB:g=original
=64	=64	=64	=64	=64	=64	=64	=64	=64	=64	=64	=64	=64	=64	=64	=64	=64
*^	*	*	*	*	*	*	*	*	*	*	*	*	*	*	*	*
4r	2.FF#X\	2.ee/	(8cc\L	.	2.ryy	.	.	2.ryy	.	.	.	2.ryy	.	.	2.ee\]	.	.
.	.	.	8e\	.	.	.	.	.	.	.	.	.	.	.	.	.	.
2A 2E 2C/	.	.	8dd\	.	.	.	.	.	.	.	.	.	.	.	.	.	.
.	.	.	8cc\	.	.	.	.	.	.	.	.	.	.	.	.	.	.
.	.	.	8bn\	.	.	.	.	.	.	.	.	.	.	.	.	.	.
.	.	.	8a\J)	.	.	.	.	.	.	.	.	.	.	.	.	.	.
*v	*v	*	*	*	*	*	*	*	*	*	*	*	*	*	*	*	*
*	*v	*v	*	*	*	*	*	*	*	*	*	*	*	*	*	*
=65	=65	=65	=65	=65	=65	=65	=65	=65	=65	=65	=65	=65	=65	=65	=65
[2.E [2.BBn [2.EE/	[2.e [>2.Bn [2.G#X/	.	2.ryy	.	.	2.ryy	.	.	.	2.ryy	.	.	[2.e/	-ni!	.
=66	=66	=66	=66	=66	=66	=66	=66	=66	=66	=66	=66	=66	=66	=66	=66
4E] 4BB] 4EE/]	4e] 4B] 4G#/]	.	2.ryy	.	.	2.ryy	.	.	.	2.ryy	.	.	4e/]	.	.
8r	8r	.	.	.	.	.	.	.	.	.	.	.	8r	.	.
4r;	4r;	.	.	.	.	.	.	.	.	.	.	.	4r;	.	.
8r	8r	.	.	.	.	.	.	.	.	.	.	.	8r	.	.
=67||	=67||	=67||	=67||	=67||	=67||	=67||	=67||	=67||	=67||	=67||	=67||	=67||	=67||	=67||	=67||
*k[]	*k[]	*	*k[]	*	*	*k[]	*	*	*	*k[]	*	*	*k[]	*	*
*M6/8	*M6/8	*	*M6/8	*	*	*M6/8	*	*	*	*M6/8	*	*	*M6/8	*	*
!	!LO:TX:a:B:t=Andante.	!	!	!	!	!	!	!	!	!	!	!	!LO:TX:a:B:t=Andante.	!	!
2.r	(2.ee\	.	2.ryy	.	.	2.ryy	.	.	.	2.ryy	.	.	2.r	.	.
=68	=68	=68	=68	=68	=68	=68	=68	=68	=68	=68	=68	=68	=68	=68	=68
!	!LO:TX:b:i:t=espress.	!	!	!	!	!	!	!	!	!	!	!	!	!	!
2.r	8cc/L	.	2.ryy	.	.	2.ryy	.	.	.	2.ryy	.	.	2.r	.	.
.	8b/	.	.	.	.	.	.	.	.	.	.	.	.	.	.
.	8g#X/J	.	.	.	.	.	.	.	.	.	.	.	.	.	.
.	(8qb/	.	.	.	.	.	.	.	.	.	.	.	.	.	.
.	8a/L)	.	.	.	.	.	.	.	.	.	.	.	.	.	.
.	8f/	.	.	.	.	.	.	.	.	.	.	.	.	.	.
.	16gn/L	.	.	.	.	.	.	.	.	.	.	.	.	.	.
.	16f/JJ)	.	.	.	.	.	.	.	.	.	.	.	.	.	.
=69	=69	=69	=69	=69	=69	=69	=69	=69	=69	=69	=69	=69	=69	=69	=69
2.r	(4.e/	.	2.ryy	.	.	2.ryy	.	.	.	2.ryy	.	.	2.r	.	.
.	16a/LL	.	.	.	.	.	.	.	.	.	.	.	.	.	.
.	16f/J	.	.	.	.	.	.	.	.	.	.	.	.	.	.
.	8g/	.	.	.	.	.	.	.	.	.	.	.	.	.	.
.	8d#X/J)	.	.	.	.	.	.	.	.	.	.	.	.	.	.
=70	=70	=70	=70	=70	=70	=70	=70	=70	=70	=70	=70	=70	=70	=70	=70
2.r;	[4.e/	.	2.ryy	.	.	2.ryy	.	.	.	2.ryy	.	.	2.r;	.	.
.	4e;/]	.	.	.	.	.	.	.	.	.	.	.	.	.	.
.	8r	.	.	.	.	.	.	.	.	.	.	.	.	.	.
!!LO:PB:g=original
=71||	=71||	=71||	=71||	=71||	=71||	=71||	=71||	=71||	=71||	=71||	=71||	=71||	=71||	=71||	=71||
*M2/4	*M2/4	*	*M2/4	*	*	*M2/4	*	*	*	*M2/4	*	*	*M2/4	*	*
!	!	!	!	!	!	!LO:TX:a:t=Soprany.	!	!	!	!	!	!	!	!	!
!	!	!	!LO:TX:a:t=Alty.	!	!	!LO:TX:a:B:t=Moderato melancolico.	!	!	!	!	!	!	!	!	!
!	!LO:TX:a:B:t=Moderato melancolico.	!	!LO:TX:a:B:t=CHÓR ŻEŃSKI.	!	!	!LO:TX:a:B:t=Kołysanka.	!	!	!	!	!	!	!	!	!
[2E [2AA/	(16c/LL	p <	2r	.	.	2r	.	.	.	2ryy	.	.	2ryy	.	.
.	16e/	.	.	.	.	.	.	.	.	.	.	.	.	.	.
.	16c/	.	.	.	.	.	.	.	.	.	.	.	.	.	.
.	16e/JJ	.	.	.	.	.	.	.	.	.	.	.	.	.	.
.	16d/LL	.	.	.	.	.	.	.	.	.	.	.	.	.	.
.	16f/	.	.	.	.	.	.	.	.	.	.	.	.	.	.
.	16d/	.	.	.	.	.	.	.	.	.	.	.	.	.	.
.	16f/JJ)	[[	.	.	.	.	.	.	.	.	.	.	.	.	.
=72	=72	=72	=72	=72	=72	=72	=72	=72	=72	=72	=72	=72	=72	=72	=72
2E] 2AA/]	(16a/LL	>	2r	.	.	2r	.	.	.	2ryy	.	.	2ryy	.	.
.	16cc/	.	.	.	.	.	.	.	.	.	.	.	.	.	.
.	16a/	.	.	.	.	.	.	.	.	.	.	.	.	.	.
.	16cc/JJ	.	.	.	.	.	.	.	.	.	.	.	.	.	.
.	16g#X/LL	.	.	.	.	.	.	.	.	.	.	.	.	.	.
.	16b/	.	.	.	.	.	.	.	.	.	.	.	.	.	.
.	16g#/	.	.	.	.	.	.	.	.	.	.	.	.	.	.
.	16b/JJ)	]	.	.	.	.	.	.	.	.	.	.	.	.	.
=73	=73	=73	=73	=73	=73	=73	=73	=73	=73	=73	=73	=73	=73	=73	=73
[2E [2AA/	(16c/LL	.	2r	.	.	2r	.	.	.	2ryy	.	.	2ryy	.	.
.	16e/	.	.	.	.	.	.	.	.	.	.	.	.	.	.
.	16c/	.	.	.	.	.	.	.	.	.	.	.	.	.	.
.	16e/JJ	.	.	.	.	.	.	.	.	.	.	.	.	.	.
.	16d/LL	.	.	.	.	.	.	.	.	.	.	.	.	.	.
.	16f/	.	.	.	.	.	.	.	.	.	.	.	.	.	.
.	16d/	.	.	.	.	.	.	.	.	.	.	.	.	.	.
.	16f/JJ)	.	.	.	.	.	.	.	.	.	.	.	.	.	.
=74	=74	=74	=74	=74	=74	=74	=74	=74	=74	=74	=74	=74	=74	=74	=74
2E] 2AA/]	(16a/LL	.	2r	.	.	2r	.	.	.	2ryy	.	.	2ryy	.	.
.	16cc/	.	.	.	.	.	.	.	.	.	.	.	.	.	.
.	16a/	.	.	.	.	.	.	.	.	.	.	.	.	.	.
.	16cc/JJ	.	.	.	.	.	.	.	.	.	.	.	.	.	.
.	16g#X/LL	.	.	.	.	.	.	.	.	.	.	.	.	.	.
.	16b/	.	.	.	.	.	.	.	.	.	.	.	.	.	.
.	16g#/	.	.	.	.	.	.	.	.	.	.	.	.	.	.
.	16b/JJ)	.	.	.	.	.	.	.	.	.	.	.	.	.	.
=75	=75	=75	=75	=75	=75	=75	=75	=75	=75	=75	=75	=75	=75	=75	=75
(16AA\LL	(8.eeL 8.cc 8.e/	.	(8.e/L	Niech	.	(8.eeL 8.cc\	Niech	.	.	2ryy	.	.	2ryy	.	.
16D#X\	.	.	.	.	.	.	.	.	.	.	.	.	.	.	.
16E\	.	.	.	.	.	.	.	.	.	.	.	.	.	.	.
16A\JJ)	16dd#XJk 16b 16f/)	.	16f/Jk)	.	.	16dd#XJk 16b\)	.	.	.	.	.	.	.	.	.
16E'\LL	8eeL 8cc 8e'/	.	8e/	cię	.	8ee 8cc\	cię	.	.	.	.	.	.	.	.
16A'\	.	.	.	.	.	.	.	.	.	.	.	.	.	.	.
16E'\	8ccJ 8a 8e'/	.	8e/	u-	.	8cc 8a\	u-	.	.	.	.	.	.	.	.
16A'\JJ	.	.	.	.	.	.	.	.	.	.	.	.	.	.	.
=76	=76	=76	=76	=76	=76	=76	=76	=76	=76	=76	=76	=76	=76	=76	=76
*^	*	*	*	*	*	*	*	*	*	*	*	*	*	*	*
(16AA\LL	4AA/	(8bL 8g 8dn/	.	(8d/L	-ko-	.	(8bL 8g/	-ko-	.	.	2ryy	.	.	2ryy	.	.
16C#X\	.	.	.	.	.	.	.	.	.	.	.	.	.	.	.	.
16Dn\	.	8gJ 8d 8B/)	.	8B/J)	.	.	8gJ 8d/)	.	.	.	.	.	.	.	.	.
16G\JJ)	.	.	.	.	.	.	.	.	.	.	.	.	.	.	.	.
16D'\LL	4ryy	4g 4d 4B/	.	4B/	-i,	.	4g 4d/	-i,	.	.	.	.	.	.	.	.
16G'\	.	.	.	.	.	.	.	.	.	.	.	.	.	.	.	.
16D'\	.	.	.	.	.	.	.	.	.	.	.	.	.	.	.	.
16G'\JJ	.	.	.	.	.	.	.	.	.	.	.	.	.	.	.	.
!!LO:LB:g=original
=77	=77	=77	=77	=77	=77	=77	=77	=77	=77	=77	=77	=77	=77	=77	=77	=77
*	*	*^	*	*	*	*	*	*	*	*	*	*	*	*	*	*
(16AA\LL	4AA/	(<8.aL 8.f/	4c\	.	4c/	niech	.	(8.aL 8.f/	niech	.	.	2ryy	.	.	2ryy	.	.
16BB\	.	.	.	.	.	.	.	.	.	.	.	.	.	.	.	.	.
16C\	.	.	.	.	.	.	.	.	.	.	.	.	.	.	.	.	.
16F\JJ)	.	16bJk 16g/)	.	.	.	.	.	16bJk 16g/)	.	.	.	.	.	.	.	.	.
16C'\LL	4ryy	8ccL 8a 8f/	4ryy	.	8f/	u-	.	8cc 8a/	u-	.	.	.	.	.	.	.	.
16F'\	.	.	.	.	.	.	.	.	.	.	.	.	.	.	.	.	.
16C'\	.	8aJ 8f 8c/	.	.	8c/	-spo-	.	8a 8f/	-spo-	.	.	.	.	.	.	.	.
16F'\JJ	.	.	.	.	.	.	.	.	.	.	.	.	.	.	.	.	.
*	*	*v	*v	*	*	*	*	*	*	*	*	*	*	*	*	*	*
=78	=78	=78	=78	=78	=78	=78	=78	=78	=78	=78	=78	=78	=78	=78	=78	=78
(16AA\LL	4AA/	8gL 8e 8c/	.	(8c/L	-ko-	.	(8gL 8e/	-ko-	.	.	2ryy	.	.	2ryy	.	.
16BB\	.	.	.	.	.	.	.	.	.	.	.	.	.	.	.	.
16C\	.	8eJ 8c 8G/	.	8G/J)	.	.	8eJ 8c/)	.	.	.	.	.	.	.	.	.
16E\JJ)	.	.	.	.	.	.	.	.	.	.	.	.	.	.	.	.
16C'\LL	4ryy	8eL 8c 8G/	.	8G/	-i	.	8e 8c/	-i	.	.	.	.	.	.	.	.
16E'\	.	.	.	.	.	.	.	.	.	.	.	.	.	.	.	.
16C'\	.	8eJ 8c 8G/	.	8G/	Ta	.	8e 8c/	Ta	.	.	.	.	.	.	.	.
16E'\JJ	.	.	.	.	.	.	.	.	.	.	.	.	.	.	.	.
=79	=79	=79	=79	=79	=79	=79	=79	=79	=79	=79	=79	=79	=79	=79	=79	=79
(16AA\LL	4AA/	[2f [>2c [2A/	.	[2A/	piosn-	.	[2f [2c/	piosn-	.	.	2ryy	.	.	2ryy	.	.
16C\	.	.	.	.	.	.	.	.	.	.	.	.	.	.	.	.
16F\	.	.	.	.	.	.	.	.	.	.	.	.	.	.	.	.
16C\JJ)	.	.	.	.	.	.	.	.	.	.	.	.	.	.	.	.
16F'\LL	4ryy	.	.	.	.	.	.	.	.	.	.	.	.	.	.	.
16C'\	.	.	.	.	.	.	.	.	.	.	.	.	.	.	.	.
16F'\	.	.	.	.	.	.	.	.	.	.	.	.	.	.	.	.
16C'\JJ	.	.	.	.	.	.	.	.	.	.	.	.	.	.	.	.
=80	=80	=80	=80	=80	=80	=80	=80	=80	=80	=80	=80	=80	=80	=80	=80	=80
16AA\LL	4AA/	8f]L 8c] 8A/]	.	8A/]	.	.	8f] 8c/]	.	.	.	2ryy	.	.	2ryy	.	.
16C\	.	.	.	.	.	.	.	.	.	.	.	.	.	.	.	.
16F\	.	8cc 8f 8c/	.	8A/	-ka	.	8cc 8f/	-ka	.	.	.	.	.	.	.	.
16C\JJ	.	.	.	.	.	.	.	.	.	.	.	.	.	.	.	.
16F'\LL	4ryy	8g 8f 8c/	.	8c/	na-	.	8g 8f/	na-	.	.	.	.	.	.	.	.
16C'\	.	.	.	.	.	.	.	.	.	.	.	.	.	.	.	.
16F'\	.	8aJ 8f 8c/	.	8c/	-sza	.	8a 8f/	-sza	.	.	.	.	.	.	.	.
16C'\JJ	.	.	.	.	.	.	.	.	.	.	.	.	.	.	.	.
=81	=81	=81	=81	=81	=81	=81	=81	=81	=81	=81	=81	=81	=81	=81	=81	=81
(16AA\LL	4AA/	2b 2g 2e 2B/	.	2e/	rzew-	.	2b 2g/	rzew-	.	.	2ryy	.	.	2ryy	.	.
16E\	.	.	.	.	.	.	.	.	.	.	.	.	.	.	.	.
16G\	.	.	.	.	.	.	.	.	.	.	.	.	.	.	.	.
16E\JJ)	.	.	.	.	.	.	.	.	.	.	.	.	.	.	.	.
16G'\LL	4ryy	.	.	.	.	.	.	.	.	.	.	.	.	.	.	.
16E'\	.	.	.	.	.	.	.	.	.	.	.	.	.	.	.	.
16G'\	.	.	.	.	.	.	.	.	.	.	.	.	.	.	.	.
16E'\JJ	.	.	.	.	.	.	.	.	.	.	.	.	.	.	.	.
=82	=82	=82	=82	=82	=82	=82	=82	=82	=82	=82	=82	=82	=82	=82	=82	=82
(16AA\LL	4AA/	2ee 2b 2e/	.	2e/	-na.	.	2ee 2b\	-na.	.	.	2ryy	.	.	2ryy	.	.
16E\	.	.	.	.	.	.	.	.	.	.	.	.	.	.	.	.
16G\	.	.	.	.	.	.	.	.	.	.	.	.	.	.	.	.
16E\JJ)	.	.	.	.	.	.	.	.	.	.	.	.	.	.	.	.
16G'\LL	4ryy	.	.	.	.	.	.	.	.	.	.	.	.	.	.	.
16F'\	.	.	.	.	.	.	.	.	.	.	.	.	.	.	.	.
16E'\	.	.	.	.	.	.	.	.	.	.	.	.	.	.	.	.
16D'\JJ	.	.	.	.	.	.	.	.	.	.	.	.	.	.	.	.
*v	*v	*	*	*	*	*	*	*	*	*	*	*	*	*	*	*
!!LO:LB:g=original
=83	=83	=83	=83	=83	=83	=83	=83	=83	=83	=83	=83	=83	=83	=83	=83
!	!	!	!	!	!LO:DY:cj	!	!	!	!LO:DY:cj	!	!	!	!	!	!
(16C\LL	(8.eeL 8.cc 8.e/	mf	(8.e/L	Du-	mf	(8.eeL 8.cc\	Du-	.	mf	2ryy	.	.	2ryy	.	.
16F#X\	.	.	.	.	.	.	.	.	.	.	.	.	.	.	.
16G\	.	.	.	.	.	.	.	.	.	.	.	.	.	.	.
16A\JJ)	16ddJk 16b 16fn/)	.	16f/Jk)	.	.	16ddJk 16b\)	.	.	.	.	.	.	.	.	.
16G'\LL	8eeL 8cc 8g'/	.	8g/	-szę	.	8ee 8cc\	-szę	.	.	.	.	.	.	.	.
16A'\	.	.	.	.	.	.	.	.	.	.	.	.	.	.	.
16G'\	8ccJ 8g 8e'/	.	8e/	stros-	.	8cc 8g/	stros-	.	.	.	.	.	.	.	.
16A'\JJ	.	.	.	.	.	.	.	.	.	.	.	.	.	.	.
=84	=84	=84	=84	=84	=84	=84	=84	=84	=84	=84	=84	=84	=84	=84	=84
(16C\LL	8bL 8g 8d/	.	(8d/L	-ka-	.	(8bL 8g/	-ka-	.	.	2ryy	.	.	2ryy	.	.
16F#X\	.	.	.	.	.	.	.	.	.	.	.	.	.	.	.
16G\	8gJ 8d 8B/	.	8B/J)	.	.	8gJ 8d/)	.	.	.	.	.	.	.	.	.
16A\JJ)	.	.	.	.	.	.	.	.	.	.	.	.	.	.	.
16G'\LL	4g 4d 4B/	.	4B/	-ną	.	4g 4d/	-ną	.	.	.	.	.	.	.	.
16A'\	.	.	.	.	.	.	.	.	.	.	.	.	.	.	.
16G'\	.	.	.	.	.	.	.	.	.	.	.	.	.	.	.
16D'\JJ	.	.	.	.	.	.	.	.	.	.	.	.	.	.	.
=85	=85	=85	=85	=85	=85	=85	=85	=85	=85	=85	=85	=85	=85	=85	=85
*^	*^	*	*	*	*	*	*	*	*	*	*	*	*	*	*
(16C\LL	4C/	8.aL 8.f/	4c\	.	4c/	Myśl	.	(8.aL 8.f/	Myśl	.	.	2ryy	.	.	2ryy	.	.
16E\	.	.	.	.	.	.	.	.	.	.	.	.	.	.	.	.	.
16F\	.	.	.	.	.	.	.	.	.	.	.	.	.	.	.	.	.
16A\JJ)	.	16bJk 16g/	.	.	.	.	.	16bJk 16g/)	.	.	.	.	.	.	.	.	.
16F'\LL	4ryy	8ccL 8a 8f/	4ryy	.	8f/	sko-	.	8cc 8a/	sko-	.	.	.	.	.	.	.	.
16A'\	.	.	.	.	.	.	.	.	.	.	.	.	.	.	.	.	.
16F'\	.	8aJ 8f 8c/	.	.	8c/	-ła-	.	8a 8f/	-ła-	.	.	.	.	.	.	.	.
16A'\JJ	.	.	.	.	.	.	.	.	.	.	.	.	.	.	.	.	.
*v	*v	*	*	*	*	*	*	*	*	*	*	*	*	*	*	*	*
*	*v	*v	*	*	*	*	*	*	*	*	*	*	*	*	*	*
=86	=86	=86	=86	=86	=86	=86	=86	=86	=86	=86	=86	=86	=86	=86	=86
*	*	*	*	*	*	*^	*	*	*	*	*	*	*	*	*
(16C\LL	8gL 8e 8c/	.	(8c/L	-ta-	.	(8gL 8e/	4.ryy	-ta-	.	.	2ryy	.	.	2ryy	.	.
16D#X\	.	.	.	.	.	.	.	.	.	.	.	.	.	.	.	.
16E\	8eJ 8c/	.	8G/J)	.	.	8eJ 8c/)	.	.	.	.	.	.	.	.	.	.
16G\JJ)	.	.	.	.	.	.	.	.	.	.	.	.	.	.	.	.
16E'\LL	8eL 8c/	.	8G/	-ną	.	8e 8c/	.	-ną	.	.	.	.	.	.	.	.
16G'\	.	.	.	.	.	.	.	.	.	.	.	.	.	.	.	.
16E'\	8eJ 8c/	.	8c/	Niech	.	8e/	8e\	Niech	.	.	.	.	.	.	.	.
16C'\JJ	.	.	.	.	.	.	.	.	.	.	.	.	.	.	.	.
*	*	*	*	*	*	*v	*v	*	*	*	*	*	*	*	*	*
=87	=87	=87	=87	=87	=87	=87	=87	=87	=87	=87	=87	=87	=87	=87	=87
(16AA\LL	[2f#X [2e [2c/	.	[2c/	fa-	.	[2f#X [2e/	fa-	.	.	2ryy	.	.	2ryy	.	.
16E\	.	.	.	.	.	.	.	.	.	.	.	.	.	.	.
16F#X\	.	.	.	.	.	.	.	.	.	.	.	.	.	.	.
16E\JJ)	.	.	.	.	.	.	.	.	.	.	.	.	.	.	.
16F#'\LL	.	.	.	.	.	.	.	.	.	.	.	.	.	.	.
16E'\	.	.	.	.	.	.	.	.	.	.	.	.	.	.	.
16F#'\	.	.	.	.	.	.	.	.	.	.	.	.	.	.	.
16E'\JJ	.	.	.	.	.	.	.	.	.	.	.	.	.	.	.
=88	=88	=88	=88	=88	=88	=88	=88	=88	=88	=88	=88	=88	=88	=88	=88
(16FF#X\LL	8f#]L 8e] 8c/]	.	8c/]	.	.	8f#] 8e/]	.	.	.	2ryy	.	.	2ryy	.	.
16E\	.	.	.	.	.	.	.	.	.	.	.	.	.	.	.
16A\	8ccJ 8e 8c/	.	8A/	-la	.	8cc 8e/	-la	.	.	.	.	.	.	.	.
16E\JJ)	.	.	.	.	.	.	.	.	.	.	.	.	.	.	.
16A'\LL	8gL 8e 8c/	.	8c/	nie-	.	8g 8e/	nie-	.	.	.	.	.	.	.	.
16E'\	.	.	.	.	.	.	.	.	.	.	.	.	.	.	.
16A'\	8aJ 8e 8c/	.	8c/	-sie	.	8a 8e/	-sie	.	.	.	.	.	.	.	.
16E'\JJ	.	.	.	.	.	.	.	.	.	.	.	.	.	.	.
!!LO:LB:g=original
=89	=89	=89	=89	=89	=89	=89	=89	=89	=89	=89	=89	=89	=89	=89	=89
*	*	*	*	*	*	*^	*	*	*	*	*	*	*	*	*
(16GG\LL	4b 4e 4B/	.	(4B/	śpiew-	.	2b/	(4e\	śpiew-	.	.	2ryy	.	.	2ryy	.	.
16E\	.	.	.	.	.	.	.	.	.	.	.	.	.	.	.	.
16G\	.	.	.	.	.	.	.	.	.	.	.	.	.	.	.	.
16E\JJ)	.	.	.	.	.	.	.	.	.	.	.	.	.	.	.	.
(16BB\LL	4d#X 4A/	.	4A/)	.	.	.	4d#X\)	.	.	.	.	.	.	.	.	.
16F#X\	.	.	.	.	.	.	.	.	.	.	.	.	.	.	.	.
16G\	.	.	.	.	.	.	.	.	.	.	.	.	.	.	.	.
16F#\JJ)	.	.	.	.	.	.	.	.	.	.	.	.	.	.	.	.
=90	=90	=90	=90	=90	=90	=90	=90	=90	=90	=90	=90	=90	=90	=90	=90	=90
(16E/LL	4e 4G/	.	4G/	-na!	.	4e/	4e\	na!	.	.	2ryy	.	.	2ryy	.	.
16C/)	.	.	.	.	.	.	.	.	.	.	.	.	.	.	.	.
16BB'/	.	.	.	.	.	.	.	.	.	.	.	.	.	.	.	.
16GG'/JJ	.	.	.	.	.	.	.	.	.	.	.	.	.	.	.	.
8EE/	8r	.	8r	.	.	8r	8ryy	.	.	.	.	.	.	.	.	.
!	!	!	!	!	!LO:DY:cj	!	!	!	!	!LO:DY:cj	!	!	!	!	!	!
8r	8e/	p	8e/	Dla	p	8e/	8e\	Dla	.	p	.	.	.	.	.	.
*	*	*	*	*	*	*v	*v	*	*	*	*	*	*	*	*	*
=91	=91	=91	=91	=91	=91	=91	=91	=91	=91	=91	=91	=91	=91	=91	=91
4E\	8bL 8g#X 8d/	.	8d/	cie-	.	8b 8g#X/	cie-	.	.	2ryy	.	.	2ryy	.	.
.	(16bL 16g# 16f/	.	(16f/LL	-bie	.	(16bLL 16g#/	-bie	.	.	.	.	.	.	.	.
.	16ccJJ 16a 16e/)	.	16e/JJ)	.	.	16ccJJ 16a/)	.	.	.	.	.	.	.	.	.
8dL 8E\	8ddL 8b\	.	8d/	świat	.	8ddL 8b\	świat	.	.	.	.	.	.	.	.
8cJ 8E\	8eeJ 8cc\	.	8c/	u-	.	8eeJ 8cc\	u-	.	.	.	.	.	.	.	.
=92	=92	=92	=92	=92	=92	=92	=92	=92	=92	=92	=92	=92	=92	=92	=92
8dL 8E\	8ddL 8b\	.	(8d/L	-śmie-	.	(8ddL 8b\	-śmie-	.	.	2ryy	.	.	2ryy	.	.
8eJ 8E\	8ccJ 8a\	.	8e/J)	.	.	8ccJ 8a\)	.	.	.	.	.	.	.	.	.
8cL 8E\	8aL 8e/	.	8c/	-chy	.	8a 8e/	-chy	.	.	.	.	.	.	.	.
8A\J	8ccJ 8e/	.	8A/	Po-	.	8cc 8e/	Po-	.	.	.	.	.	.	.	.
=93	=93	=93	=93	=93	=93	=93	=93	=93	=93	=93	=93	=93	=93	=93	=93
*	*	*	*	*	*	*^	*	*	*	*	*	*	*	*	*
(16EE\LL	8eL 8d 8G#X/	.	8G#X/	-wa-	.	8e/	8e\	-wa-	.	.	2ryy	.	.	2ryy	.	.
16BB\	.	.	.	.	.	.	.	.	.	.	.	.	.	.	.	.
16E\	16g#XL 16e 16B/	.	(16B/LL	-by	.	(16g#XLL 16e/	4.ryy	-by	.	.	.	.	.	.	.	.
16D\JJ)	16aJJ 16f 16c/	.	16c/JJ)	.	.	16aJJ 16f/)	.	.	.	.	.	.	.	.	.	.
(16G#X\LL	8bL 8e 8d/	.	8d/	tyl-	.	8b 8e/	.	tyl-	.	.	.	.	.	.	.	.
16E\	.	.	.	.	.	.	.	.	.	.	.	.	.	.	.	.
16F\	8g#J 8d 8B/	.	8B/	-ko	.	8g# 8d/	.	-ko	.	.	.	.	.	.	.	.
16E\JJ)	.	.	.	.	.	.	.	.	.	.	.	.	.	.	.	.
=94	=94	=94	=94	=94	=94	=94	=94	=94	=94	=94	=94	=94	=94	=94	=94	=94
(16AA\LL	(8e 8d 8B/	<	(8B/	ma	.	(8e (8d/	4.ryy	ma	.	.	2ryy	.	.	2ryy	.	.
16E\	.	.	.	.	.	.	.	.	.	.	.	.	.	.	.	.
16F\	4a 4c 4A/)	.	4A/)	.	.	4a 4c/))	.	.	.	.	.	.	.	.	.	.
16D#X\JJ	.	.	.	.	.	.	.	.	.	.	.	.	.	.	.	.
16F\LL	.	.	.	.	.	.	.	.	.	.	.	.	.	.	.	.
16E\	.	.	.	.	.	.	.	.	.	.	.	.	.	.	.	.
!	!	!	!	!	!LO:DY:cj	!	!	!	!	!LO:DY:cj	!	!	!	!	!	!
16C\	8a/	[ f	8a/	Za	f	8a/	8a\	Za	.	f	.	.	.	.	.	.
16AA\JJ)	.	.	.	.	.	.	.	.	.	.	.	.	.	.	.	.
!!LO:PB:g=original
=95	=95	=95	=95	=95	=95	=95	=95	=95	=95	=95	=95	=95	=95	=95	=95	=95
*	*^	*	*	*	*	*	*	*	*	*	*	*	*	*	*	*
8A\L	8ddL 8a 8f/	8ryy	.	8f/	.	.	8dd/	8a\	tros-	.	.	2ryy	.	.	2ryy	.	.
(16f\L	(16dd/L	4a\	.	(16f/LL	.	.	(16dd/LL	8a\	-ki	.	.	.	.	.	.	.	.
16e\JJ	16ee/JJ	.	.	16e/JJ)	.	.	16ee/JJ)	.	.	.	.	.	.	.	.	.	.
8d\L)	8ffL 8a\)	.	.	8d/	.	.	8ff 8a\	4ryy	on	.	.	.	.	.	.	.	.
8cJ 8A'\	8eeJ 8a'\	8ryy	.	8c/	.	.	8ee 8a\	.	po-	.	.	.	.	.	.	.	.
*	*v	*v	*	*	*	*	*v	*v	*	*	*	*	*	*	*	*	*
=96	=96	=96	=96	=96	=96	=96	=96	=96	=96	=96	=96	=96	=96	=96	=96
(16A\LL	8ddL 8a 8f/	.	(8f/L	.	.	(8ddL 8a/	-cie-	.	.	2ryy	.	.	2ryy	.	.
16F\	.	.	.	.	.	.	.	.	.	.	.	.	.	.	.
16D\	8aJ 8f 8d/	.	8d/J)	.	.	8aJ 8f/)	.	.	.	.	.	.	.	.	.
16AA\JJ)	.	.	.	.	.	.	.	.	.	.	.	.	.	.	.
8A'\L	8ccL 8e 8c/	.	8c/	.	.	8cc 8e/	-chy.	.	.	.	.	.	.	.	.
8BB'\J	8fJ 8d/	.	8d/	.	.	8f 8d/	Roz-	.	.	.	.	.	.	.	.
=97	=97	=97	=97	=97	=97	=97	=97	=97	=97	=97	=97	=97	=97	=97	=97
*	*^	*	*	*	*	*^	*	*	*	*	*	*	*	*	*
(16EE/LL	8a/L	8B\L	.	8B/	.	.	8a 8d/	8ryy	-ko-	.	.	2ryy	.	.	2ryy	.	.
16BB/J	.	.	.	.	.	.	.	.	.	.	.	.	.	.	.	.	.
[>8E/J)	(16g#X/L	8B\J	.	8B/	.	.	(16g#X/LL	8d\	-sze	.	.	.	.	.	.	.	.
.	16e/JJ)	.	.	.	.	.	16e/JJ)	.	.	.	.	.	.	.	.	.	.
16E\LL]	8g#L 8d 8B/	4ryy	.	8B/	.	>	8g# 8d/	4ryy	to-	.	>	.	.	.	.	.	.
(16F\	.	.	.	.	.	.	.	.	.	.	.	.	.	.	.	.	.
16E\	8bJ 8e 8d/	.	.	8d/	.	]	8b 8e/	.	-bie	.	]	.	.	.	.	.	.
16G#X\JJ)	.	.	.	.	.	.	.	.	.	.	.	.	.	.	.	.	.
*	*v	*v	*	*	*	*	*v	*v	*	*	*	*	*	*	*	*	*
=98	=98	=98	=98	=98	=98	=98	=98	=98	=98	=98	=98	=98	=98	=98	=98
(16A\LL	2a 2e 2c/	.	2c/	.	.	2a 2e/	da	.	.	2ryy	.	.	2ryy	.	.
16F\	.	.	.	.	.	.	.	.	.	.	.	.	.	.	.
16D#X\	.	.	.	.	.	.	.	.	.	.	.	.	.	.	.
16E\JJ	.	.	.	.	.	.	.	.	.	.	.	.	.	.	.
16F\LL	.	.	.	.	.	.	.	.	.	.	.	.	.	.	.
16E\	.	.	.	.	.	.	.	.	.	.	.	.	.	.	.
16C\	.	.	.	.	.	.	.	.	.	.	.	.	.	.	.
16BB\JJ)	.	.	.	.	.	.	.	.	.	.	.	.	.	.	.
=99	=99	=99	=99	=99	=99	=99	=99	=99	=99	=99	=99	=99	=99	=99	=99
*	*^	*	*	*	*	*^	*	*	*	*	*	*	*	*	*
!	!	!	!LO:DY:cj	!	!	!LO:DY:cj	!	!	!	!	!LO:DY:cj	!	!	!	!	!	!
(16AA\LL	(8f/L	4c\	mf	(4c/	.	mf	((8f/L	4f\	A	.	mf	2ryy	.	.	2ryy	.	.
16F\	.	.	.	.	.	.	.	.	.	.	.	.	.	.	.	.	.
16A\	16a/L	.	.	.	.	.	16a/L	.	.	.	.	.	.	.	.	.	.
16F\JJ	16b/JJ	.	.	.	.	.	16b/JJ	.	.	.	.	.	.	.	.	.	.
16A\LL	8ccL 8a 8f/	4ryy	.	8f/L	.	.	8cc/L	8a\L	.	.	.	.	.	.	.	.	.
16G\J	.	.	.	.	.	.	.	.	.	.	.	.	.	.	.	.	.
8F\J)	8dd#XJ 8b 8a/)	.	.	8a/J	.	.	8dd#X/J	8b\J	.	.	.	.	.	.	.	.	.
*	*v	*v	*	*	*	*	*v	*v	*	*	*	*	*	*	*	*	*
=100	=100	=100	=100	=100	=100	=100	=100	=100	=100	=100	=100	=100	=100	=100	=100
(16AA\LL	(<8eeL 8cc 8a/	.	8a/L	.	.	8eeL 8cc\	.	.	.	2ryy	.	.	2ryy	.	.
16E\	.	.	.	.	.	.	.	.	.	.	.	.	.	.	.
16A\	8ccJ 8a 8e/	.	8e/J	.	.	8ccJ 8a\	.	.	.	.	.	.	.	.	.
16E\JJ	.	.	.	.	.	.	.	.	.	.	.	.	.	.	.
16A\LL	4ee 4cc 4a\)	.	4a/)	.	.	4ee 4cc\))	.	.	.	.	.	.	.	.	.
16F\J	.	.	.	.	.	.	.	.	.	.	.	.	.	.	.
8E\J)	.	.	.	.	.	.	.	.	.	.	.	.	.	.	.
!!LO:LB:g=original
=101	=101	=101	=101	=101	=101	=101	=101	=101	=101	=101	=101	=101	=101	=101	=101
(16AA\LL	(8bL 8g#X 8d/	.	(8d/L	.	p	(8bL 8g#X/	A	.	p	2ryy	.	.	2ryy	.	.
16E\	.	.	.	.	.	.	.	.	.	.	.	.	.	.	.
16F\	8g#J 8d 8B/	.	8B/J	.	.	8g#XJ 8d/	.	.	.	.	.	.	.	.	.
16E\JJ	.	.	.	.	.	.	.	.	.	.	.	.	.	.	.
16F\LL	4b 4g# 4d/)	.	4d/	.	.	4b 4g#/	.	.	.	.	.	.	.	.	.
16E\	.	.	.	.	.	.	.	.	.	.	.	.	.	.	.
16AA\	.	.	.	.	.	.	.	.	.	.	.	.	.	.	.
16E\JJ)	.	.	.	.	.	.	.	.	.	.	.	.	.	.	.
=102	=102	=102	=102	=102	=102	=102	=102	=102	=102	=102	=102	=102	=102	=102	=102
(16AA\LL	(8aL 8e 8c/	.	8c/L	.	.	8aL 8e/	.	.	.	2ryy	.	.	2ryy	.	.
16E\	.	.	.	.	.	.	.	.	.	.	.	.	.	.	.
16F\	8eJ 8c 8A/	.	8A/J	.	.	8eJ 8c/	.	.	.	.	.	.	.	.	.
16E\JJ	.	.	.	.	.	.	.	.	.	.	.	.	.	.	.
16A\LL	4a 4e 4c/)	.	4c/)	.	.	4a 4e/)	.	.	.	.	.	.	.	.	.
16E\	.	.	.	.	.	.	.	.	.	.	.	.	.	.	.
16AA\	.	.	.	.	.	.	.	.	.	.	.	.	.	.	.
16E\JJ)	.	.	.	.	.	.	.	.	.	.	.	.	.	.	.
=103	=103	=103	=103	=103	=103	=103	=103	=103	=103	=103	=103	=103	=103	=103	=103
*	*^	*	*	*	*	*^	*	*	*	*	*	*	*	*	*
(16AA\LL	(8f/L	4c\	p	(4c/	.	p	(8f/L	(4f\	A	.	p	2ryy	.	.	2ryy	.	.
16F\	.	.	.	.	.	.	.	.	.	.	.	.	.	.	.	.	.
16A\	16a/L	.	.	.	.	.	16a/L	.	.	.	.	.	.	.	.	.	.
16F\JJ	16b/JJ	.	.	.	.	.	16b/JJ	.	.	.	.	.	.	.	.	.	.
16A\LL	8ccL 8a/	4f\	.	4f/	.	.	8cc/L	8a\L	.	.	.	.	.	.	.	.	.
16F\	.	.	.	.	.	.	.	.	.	.	.	.	.	.	.	.	.
16AA\	8dd#XJ 8b/)	.	.	.	.	.	8dd#X/J	8b\J	.	.	.	.	.	.	.	.	.
16F\JJ)	.	.	.	.	.	.	.	.	.	.	.	.	.	.	.	.	.
=104	=104	=104	=104	=104	=104	=104	=104	=104	=104	=104	=104	=104	=104	=104	=104	=104	=104
(16GG#X\LL	(8ee/L	4.b 4.e\	.	4.e/)	.	.	8ee/L	4.b\)	.	.	.	2ryy	.	.	2ryy	.	.
16E\	.	.	.	.	.	.	.	.	.	.	.	.	.	.	.	.	.
16F\	8b/	.	.	.	.	.	8b/	.	.	.	.	.	.	.	.	.	.
16E\JJ	.	.	.	.	.	.	.	.	.	.	.	.	.	.	.	.	.
16F/LL	8ee/)	.	.	.	.	.	8ee/J)	.	.	.	.	.	.	.	.	.	.
16E/	.	.	.	.	.	.	.	.	.	.	.	.	.	.	.	.	.
*	*	*	*	*	*	*	*	*	*	*above	*	*	*	*	*	*	*
16GG#/	8ddn/J	8b 8e\	.	8e/	.	.	8ddn/	8b\	Roz-	Roz-	.	.	.	.	.	.	.
16E/JJ)	.	.	.	.	.	.	.	.	.	.	.	.	.	.	.	.	.
=105	=105	=105	=105	=105	=105	=105	=105	=105	=105	=105	=105	=105	=105	=105	=105	=105	=105
(16AA\LL	([4cc/	4a 4e\	.	4e/	.	.	([4cc/	4a\	-ko-	-ko-	.	2ryy	.	.	2ryy	.	.
16E\	.	.	.	.	.	.	.	.	.	.	.	.	.	.	.	.	.
16F\	.	.	.	.	.	.	.	.	.	.	.	.	.	.	.	.	.
16E\JJ	.	.	.	.	.	.	.	.	.	.	.	.	.	.	.	.	.
16F\LL	16cc/LL]	4e 4c\	.	4c/	.	.	16cc/LL]	4e\	-sze	.	.	.	.	.	.	.	.
16E\	16dd/	.	.	.	.	.	16dd/JJ)	.	.	.	.	.	.	.	.	.	.
16AA\	16cc/	.	.	.	.	.	16cc/LL	.	.	-sze	.	.	.	.	.	.	.
16E\JJ)	16a/JJ)	.	.	.	.	.	16a/JJ	.	.	.	.	.	.	.	.	.	.
=106	=106	=106	=106	=106	=106	=106	=106	=106	=106	=106	=106	=106	=106	=106	=106	=106	=106
8EE/	(8g#X/L	4d 4B\	.	(8B/L	.	.	(8g#X/L	(8d\L	to-	.	.	2ryy	.	.	2ryy	.	.
8r	8e/J)	.	.	8d/J)	.	.	8e/J)	8e\J)	.	.	.	.	.	.	.	.	.
4E\	4b 4g# 4d/	4ryy	.	4d/	.	.	4b/	4g#X\	-bie	.	.	.	.	.	.	.	.
*	*v	*v	*	*	*	*	*	*	*	*	*	*	*	*	*	*	*
!!LO:LB:g=original
=107	=107	=107	=107	=107	=107	=107	=107	=107	=107	=107	=107	=107	=107	=107	=107	=107
(16AA\LL	2a 2c/	pp	(2c/	.	pp	(2a/	[2a\	da	.	pp	2ryy	.	.	2ryy	.	.
16E\	.	.	.	.	.	.	.	.	.	.	.	.	.	.	.	.
16F\	.	.	.	.	.	.	.	.	.	.	.	.	.	.	.	.
16E\JJ	.	.	.	.	.	.	.	.	.	.	.	.	.	.	.	.
16A\LL	.	.	.	.	.	.	.	.	.	.	.	.	.	.	.	.
16E\	.	.	.	.	.	.	.	.	.	.	.	.	.	.	.	.
16A\	.	<	.	.	.	.	.	.	.	.	.	.	.	.	.	.
16E\JJ)	.	.	.	.	.	.	.	.	.	.	.	.	.	.	.	.
=108	=108	=108	=108	=108	=108	=108	=108	=108	=108	=108	=108	=108	=108	=108	=108	=108
(16AA/LL	2b 2a 2f/	.	2f/	.	.	2b/	(2a\]	.	.	.	2ryy	.	.	2ryy	.	.
16D/	.	[	.	.	.	.	.	.	.	.	.	.	.	.	.	.
16E/	.	.	.	.	.	.	.	.	.	.	.	.	.	.	.	.
16D/JJ	.	.	.	.	.	.	.	.	.	.	.	.	.	.	.	.
16A\LL	.	.	.	.	.	.	.	.	.	.	.	.	.	.	.	.
16D\	.	.	.	.	.	.	.	.	.	.	.	.	.	.	.	.
16A\	.	.	.	.	.	.	.	.	.	.	.	.	.	.	.	.
16D\JJ)	.	.	.	.	.	.	.	.	.	.	.	.	.	.	.	.
=109	=109	=109	=109	=109	=109	=109	=109	=109	=109	=109	=109	=109	=109	=109	=109	=109
(16AA/LL	(2cc 2gn 2e/	.	2e/	.	.	2cc/	(2g\)	.	.	.	2ryy	.	.	2ryy	.	.
16C/	.	.	.	.	.	.	.	.	.	.	.	.	.	.	.	.
16D/	.	.	.	.	.	.	.	.	.	.	.	.	.	.	.	.
16C/JJ	.	.	.	.	.	.	.	.	.	.	.	.	.	.	.	.
16G\LL	.	.	.	.	.	.	.	.	.	.	.	.	.	.	.	.
16C\	.	.	.	.	.	.	.	.	.	.	.	.	.	.	.	.
16G\	.	>	.	.	.	.	.	.	.	.	.	.	.	.	.	.
16C\JJ)	.	.	.	.	.	.	.	.	.	.	.	.	.	.	.	.
=110	=110	=110	=110	=110	=110	=110	=110	=110	=110	=110	=110	=110	=110	=110	=110	=110
(16AA\LL	2b 2g#X 2d/)	.	2d/)	.	.	2b/)	2g#X\)	.	.	.	2ryy	.	.	2ryy	.	.
16E\	.	.	.	.	.	.	.	.	.	.	.	.	.	.	.	.
16F\	.	]	.	.	.	.	.	.	.	.	.	.	.	.	.	.
16E\JJ	.	.	.	.	.	.	.	.	.	.	.	.	.	.	.	.
16B\LL	.	.	.	.	.	.	.	.	.	.	.	.	.	.	.	.
16E\	.	.	.	.	.	.	.	.	.	.	.	.	.	.	.	.
16F\	.	.	.	.	.	.	.	.	.	.	.	.	.	.	.	.
16E\JJ)	.	.	.	.	.	.	.	.	.	.	.	.	.	.	.	.
=111	=111	=111	=111	=111	=111	=111	=111	=111	=111	=111	=111	=111	=111	=111	=111	=111
(16AA/LL	(2a (2c/	pp	(2c/	.	pp	(2a/	2a\	A	.	pp	2ryy	.	.	2ryy	.	.
16C/	.	.	.	.	.	.	.	.	.	.	.	.	.	.	.	.
16D/	.	.	.	.	.	.	.	.	.	.	.	.	.	.	.	.
16C/JJ	.	.	.	.	.	.	.	.	.	.	.	.	.	.	.	.
16FF/LL	.	.	.	.	.	.	.	.	.	.	.	.	.	.	.	.
16C/	.	.	.	.	.	.	.	.	.	.	.	.	.	.	.	.
16A/	.	.	.	.	.	.	.	.	.	.	.	.	.	.	.	.
16C/JJ)	.	.	.	.	.	.	.	.	.	.	.	.	.	.	.	.
=112	=112	=112	=112	=112	=112	=112	=112	=112	=112	=112	=112	=112	=112	=112	=112	=112
(16DD/LL	2b 2g 2fn/))	.	2f/	.	.	2b/	[2gn\	.	.	.	2ryy	.	.	2ryy	.	.
16D/	.	.	.	.	.	.	.	.	.	.	.	.	.	.	.	.
16E/	.	.	.	.	.	.	.	.	.	.	.	.	.	.	.	.
16D/JJ	.	.	.	.	.	.	.	.	.	.	.	.	.	.	.	.
16G\LL	.	.	.	.	.	.	.	.	.	.	.	.	.	.	.	.
16D\	.	.	.	.	.	.	.	.	.	.	.	.	.	.	.	.
16E\	.	.	.	.	.	.	.	.	.	.	.	.	.	.	.	.
16D\JJ)	.	.	.	.	.	.	.	.	.	.	.	.	.	.	.	.
!!LO:LB:g=original
=113	=113	=113	=113	=113	=113	=113	=113	=113	=113	=113	=113	=113	=113	=113	=113	=113
(16CC/LL	(2cc 2g (2e/	.	2e/	.	.	2cc/	(2g\]	.	.	.	2ryy	.	.	2ryy	.	.
16GG/	.	.	.	.	.	.	.	.	.	.	.	.	.	.	.	.
16C/	.	.	.	.	.	.	.	.	.	.	.	.	.	.	.	.
16D/JJ	.	.	.	.	.	.	.	.	.	.	.	.	.	.	.	.
16E\LL	.	.	.	.	.	.	.	.	.	.	.	.	.	.	.	.
16G\J	.	.	.	.	.	.	.	.	.	.	.	.	.	.	.	.
8c\J)	.	.	.	.	.	.	.	.	.	.	.	.	.	.	.	.
=114	=114	=114	=114	=114	=114	=114	=114	=114	=114	=114	=114	=114	=114	=114	=114	=114
(16EE/LL	2b 2g#X 2d/))	.	2d/	.	.	2b/	(2g#X\)	.	.	.	2ryy	.	.	2ryy	.	.
16BB/	.	.	.	.	.	.	.	.	.	.	.	.	.	.	.	.
16C/	.	.	.	.	.	.	.	.	.	.	.	.	.	.	.	.
16BB/JJ	.	.	.	.	.	.	.	.	.	.	.	.	.	.	.	.
16E\LL	.	.	.	.	.	.	.	.	.	.	.	.	.	.	.	.
16F\J	.	.	.	.	.	.	.	.	.	.	.	.	.	.	.	.
8E\J)	.	.	.	.	.	.	.	.	.	.	.	.	.	.	.	.
*	*	*	*	*	*	*v	*v	*	*	*	*	*	*	*	*	*
=115	=115	=115	=115	=115	=115	=115	=115	=115	=115	=115	=115	=115	=115	=115	=115
(16AA\LL	[2a [2c/	.	[2c/)	.	.	[2a [2e/))	.	.	.	2ryy	.	.	2ryy	.	.
16D#X\	.	.	.	.	.	.	.	.	.	.	.	.	.	.	.
16E\	.	.	.	.	.	.	.	.	.	.	.	.	.	.	.
16A\JJ	.	.	.	.	.	.	.	.	.	.	.	.	.	.	.
16E\LL	.	.	.	.	.	.	.	.	.	.	.	.	.	.	.
16A\	.	.	.	.	.	.	.	.	.	.	.	.	.	.	.
16E\	.	.	.	.	.	.	.	.	.	.	.	.	.	.	.
16A\JJ)	.	.	.	.	.	.	.	.	.	.	.	.	.	.	.
=116	=116	=116	=116	=116	=116	=116	=116	=116	=116	=116	=116	=116	=116	=116	=116
(16AA\LL	2a] 2c/]	.	2c/_	.	.	2a_ 2e/_	.	.	.	2ryy	.	.	2ryy	.	.
16D#X\	.	.	.	.	.	.	.	.	.	.	.	.	.	.	.
16E\	.	.	.	.	.	.	.	.	.	.	.	.	.	.	.
16A\JJ	.	.	.	.	.	.	.	.	.	.	.	.	.	.	.
16E\LL	.	<	.	.	.	.	.	.	.	.	.	.	.	.	.
16A\	.	.	.	.	.	.	.	.	.	.	.	.	.	.	.
16E\	.	.	.	.	.	.	.	.	.	.	.	.	.	.	.
16A\JJ)	.	[	.	.	.	.	.	.	.	.	.	.	.	.	.
=117	=117	=117	=117	=117	=117	=117	=117	=117	=117	=117	=117	=117	=117	=117	=117
4E 4AA/	(16c/LL	p	8c/]	.	.	8a] 8e/]	.	.	.	2ryy	.	.	2ryy	.	.
.	16e/	.	.	.	.	.	.	.	.	.	.	.	.	.	.
.	16c/	.	8r	.	.	8r	.	.	.	.	.	.	.	.	.
.	16e/JJ	.	.	.	.	.	.	.	.	.	.	.	.	.	.
8AAA/L	16d/LL	<	4r	.	.	4r	.	.	.	.	.	.	.	.	.
.	16f/	.	.	.	.	.	.	.	.	.	.	.	.	.	.
8EJ 8AA'/	16d/	.	.	.	.	.	.	.	.	.	.	.	.	.	.
.	16f/JJ)	[	.	.	.	.	.	.	.	.	.	.	.	.	.
=118	=118	=118	=118	=118	=118	=118	=118	=118	=118	=118	=118	=118	=118	=118	=118
4E 4AA/	(16a^^/LL	>	2r	.	.	2r	.	.	.	2ryy	.	.	2ryy	.	.
.	16cc/	.	.	.	.	.	.	.	.	.	.	.	.	.	.
.	16a/	.	.	.	.	.	.	.	.	.	.	.	.	.	.
.	16cc/JJ	.	.	.	.	.	.	.	.	.	.	.	.	.	.
8AAA'/L	16g#X/LL	.	.	.	.	.	.	.	.	.	.	.	.	.	.
.	16b/	]	.	.	.	.	.	.	.	.	.	.	.	.	.
8EJ 8AA'/	16g#/	.	.	.	.	.	.	.	.	.	.	.	.	.	.
.	16b/JJ)	.	.	.	.	.	.	.	.	.	.	.	.	.	.
!!LO:PB:g=original
=119	=119	=119	=119	=119	=119	=119	=119	=119	=119	=119	=119	=119	=119	=119	=119
!	!	!	!	!	!	!	!	!	!	!	!	!	!LO:TX:a:t=Selene	!	!
8r	(16c/LL	.	2r	.	.	2r	.	.	.	2ryy	.	.	2r	.	.
.	16e/	.	.	.	.	.	.	.	.	.	.	.	.	.	.
8E 8AA/	16c/	.	.	.	.	.	.	.	.	.	.	.	.	.	.
.	16e/JJ	.	.	.	.	.	.	.	.	.	.	.	.	.	.
8AAA'/L	16d/LL	<	.	.	.	.	.	.	.	.	.	.	.	.	.
.	16f/	.	.	.	.	.	.	.	.	.	.	.	.	.	.
8EJ 8AA'/	16d/	.	.	.	.	.	.	.	.	.	.	.	.	.	.
.	16f/JJ)	[	.	.	.	.	.	.	.	.	.	.	.	.	.
=120	=120	=120	=120	=120	=120	=120	=120	=120	=120	=120	=120	=120	=120	=120	=120
8r	(16a/LL	>	2r	.	.	2r	.	.	.	2ryy	.	.	(2ee\	Ach!	p
.	16cc/	.	.	.	.	.	.	.	.	.	.	.	.	.	.
8E 8AA/	16a/	.	.	.	.	.	.	.	.	.	.	.	.	.	.
.	16cc/JJ	.	.	.	.	.	.	.	.	.	.	.	.	.	.
8AAA'/L	16g#X/LL	.	.	.	.	.	.	.	.	.	.	.	.	.	.
.	16b/	]	.	.	.	.	.	.	.	.	.	.	.	.	.
8EJ 8AA'/	16g#/	.	.	.	.	.	.	.	.	.	.	.	.	.	.
.	16b/JJ)	.	.	.	.	.	.	.	.	.	.	.	.	.	.
=121	=121	=121	=121	=121	=121	=121	=121	=121	=121	=121	=121	=121	=121	=121	=121
*^	*	*	*	*	*	*	*	*	*	*	*	*	*	*	*
.	.	(>8qe/	.	.	.	.	.	.	.	.	.	.	.	.	.	.
2AA/	(>16AA\LL	16eeLL 16cc\)	p	(8.e/L	.	p	(8.eeL 8.cc\	Niech	.	p	2ryy	.	.	4aa\)	.	.
.	16E\	(16ee\	.	.	.	.	.	.	.	.	.	.	.	.	.	.
.	16A\	16eee 16ccc\	.	.	.	.	.	.	.	.	.	.	.	.	.	.
.	16E\JJ	16ddd#XJJ 16bb\)	.	16f/Jk)	.	.	16dd#XJk 16b\)	.	.	.	.	.	.	.	.	.
.	16A\LL	8eeeL 8ccc 8ee'\	.	8e/	.	.	8ee 8cc\	twe	.	.	.	.	.	8r	.	.
.	16E\	.	.	.	.	.	.	.	.	.	.	.	.	.	.	.
.	16A\	8cccJ 8aa 8ee 8cc'\	.	8e/	.	.	8cc 8a\	cier-	.	.	.	.	.	8ee\	Niech	.
.	16E\JJ)	.	.	.	.	.	.	.	.	.	.	.	.	.	.	.
=122	=122	=122	=122	=122	=122	=122	=122	=122	=122	=122	=122	=122	=122	=122	=122	=122
2AA/	(>16AA\LL	8bbL 8gg 8ddn 8b'\	.	(8d/L	.	.	(8bL 8g/	-pie-	.	.	2ryy	.	.	([4gg\	twe	.
.	16D\	.	.	.	.	.	.	.	.	.	.	.	.	.	.	.
.	16G\	8ggJ 8dd 8b 8g'\	.	8B/J)	.	.	8gJ 8d/)	.	.	.	.	.	.	.	.	.
.	16D\JJ	.	.	.	.	.	.	.	.	.	.	.	.	.	.	.
.	16G\LL	8ddL 8b 8g 8d'/	.	4B/	.	.	4g 4d/	-nia	.	.	.	.	.	16gg\LL]	.	.
.	16D\	.	.	.	.	.	.	.	.	.	.	.	.	16ff\JJ)	.	.
.	16G\	8bJ 8g 8d 8B'/	.	.	.	.	.	.	.	.	.	.	.	(16ee\LL	cier-	.
.	16D\JJ)	.	.	.	.	.	.	.	.	.	.	.	.	16dd\JJ)	.	.
=123	=123	=123	=123	=123	=123	=123	=123	=123	=123	=123	=123	=123	=123	=123	=123	=123
.	.	(8qc/	.	.	.	.	.	.	.	.	.	.	.	.	.	.
2AA/	(>16AA\LL	16aLL 16f\)	.	4c/	.	.	(8.aL 8.f/	W_ra-	.	.	2ryy	.	.	(8cc\	-pie-	.
.	16C\	(16cc\	.	.	.	.	.	.	.	.	.	.	.	.	.	.
.	16F\	16aa 16ff\	.	.	.	.	.	.	.	.	.	.	.	4ff\)	.	.
.	16C\JJ	16bbJJ 16gg\)	.	.	.	.	16bJk 16g/)	.	.	.	.	.	.	.	.	.
.	16F\LL	8cccL 8aa'\	.	8f/	.	.	8cc 8a/	-dość	.	.	.	.	.	.	.	.
.	16C\	.	.	.	.	.	.	.	.	.	.	.	.	.	.	.
.	16F\	8aaJ 8ff 8cc'\	.	8c/	.	.	8a 8f/	za-	.	.	.	.	.	(16a/LL	-nia	.
.	16C\JJ)	.	.	.	.	.	.	.	.	.	.	.	.	16b/JJ)	.	.
!!LO:LB:g=original
=124	=124	=124	=124	=124	=124	=124	=124	=124	=124	=124	=124	=124	=124	=124	=124	=124
2AA/	(>16AA\LL	8ggL 8ee 8cc'\	.	(8c/L	.	.	(8gL (8e/	-mie-	.	.	2ryy	.	.	(8.cc\L	W_ra-	.
.	16C\	.	.	.	.	.	.	.	.	.	.	.	.	.	.	.
.	16E\	8eeJ 8cc 8g'\	.	8G/J)	.	.	8eJ 8c/))	.	.	.	.	.	.	.	.	.
.	16C\JJ	.	.	.	.	.	.	.	.	.	.	.	.	16dd\Jk)	.	.
.	16E\LL	8ccL 8g 8e'/	.	8G/	.	.	8e 8c/	-nia	.	.	.	.	.	8ee\	-dość	.
.	16C\	.	.	.	.	.	.	.	.	.	.	.	.	.	.	.
.	16E\	8gJ 8e 8c'/	.	8G/	.	.	8e 8c/	Ten	.	.	.	.	.	8ee\	za-	.
.	16C\JJ)	.	.	.	.	.	.	.	.	.	.	.	.	.	.	.
=125	=125	=125	=125	=125	=125	=125	=125	=125	=125	=125	=125	=125	=125	=125	=125	=125
2AA/	(>16AA\LL	8fL 8c/	.	[2A/	.	.	[2f [2c/	jas-	.	.	2ryy	.	.	(8dd\L	-mie-	.
.	16C\	.	.	.	.	.	.	.	.	.	.	.	.	.	.	.
.	16F\	(16fL 16c/	.	.	.	.	.	.	.	.	.	.	.	8cc\J)	.	.
.	16C\JJ	16g/JJ)	.	.	.	.	.	.	.	.	.	.	.	.	.	.
.	16F\LL	8aL 8f 8c/	.	.	.	.	.	.	.	.	.	.	.	8a/	-nia,	.
.	16C\	.	.	.	.	.	.	.	.	.	.	.	.	.	.	.
.	16F\	(16bL 16a 16f/	.	.	.	.	.	.	.	.	.	.	.	(16b\LL	Ten	.
.	16C\JJ)	16cc/JJ)	.	.	.	.	.	.	.	.	.	.	.	16cc\JJ)	.	.
=126	=126	=126	=126	=126	=126	=126	=126	=126	=126	=126	=126	=126	=126	=126	=126	=126
2AA/	(>16AA\LL	8ggL 8cc 8a'\	.	8A/]	.	.	8f] 8c/]	.	.	.	2ryy	.	.	8gg\	jas-	.
.	16C\	.	.	.	.	.	.	.	.	.	.	.	.	.	.	.
.	16F\	8ffJ 8cc 8a'\	.	8A/	.	.	8cc 8f/	-ny	.	.	.	.	.	8ff\	-ny	.
.	16C\JJ	.	.	.	.	.	.	.	.	.	.	.	.	.	.	.
.	16F\LL	8aaL 8ff 8cc'\	.	8c/	.	.	8g 8f/	pro-	.	.	.	.	.	8cc\	pro-	.
.	16C\	.	.	.	.	.	.	.	.	.	.	.	.	.	.	.
.	16F\	(16ccL 16a 16f\	.	8c/	.	.	8a 8f/	-mień	.	.	.	.	.	8ff\	-mień	.
.	16C\JJ)	16dd\JJ)	.	.	.	.	.	.	.	.	.	.	.	.	.	.
=127	=127	=127	=127	=127	=127	=127	=127	=127	=127	=127	=127	=127	=127	=127	=127	=127
2AA/	(>16AA\LL	8eeL 8b 8g\	.	2e/	.	.	2b 2g/	słoń-	.	.	2ryy	.	.	([4ee\	słoń-	.
.	16E\	.	.	.	.	.	.	.	.	.	.	.	.	.	.	.
.	16G\	(16bbL 16ee 16b\	.	.	.	.	.	.	.	.	.	.	.	.	.	.
.	16E\JJ	16aa\JJ)	.	.	.	.	.	.	.	.	.	.	.	.	.	.
.	16G\LL	8ggL 8ee 8b'\	.	.	.	.	.	.	.	.	.	.	.	16ee\LL]	.	.
.	16E\	.	.	.	.	.	.	.	.	.	.	.	.	16ff\	.	.
.	16G\	8eeJ 8b 8g'\	.	.	.	.	.	.	.	.	.	.	.	16ee\	.	.
.	16E\JJ)	.	.	.	.	.	.	.	.	.	.	.	.	16ff\JJ)	.	.
*v	*v	*	*	*	*	*	*	*	*	*	*	*	*	*	*	*
=128	=128	=128	=128	=128	=128	=128	=128	=128	=128	=128	=128	=128	=128	=128	=128
(16AA\LL	8bL 8g 8e'/	.	2e/	.	.	2ee 2b\	-ca.	.	.	2ryy	.	.	4ee\	-ca	.
16E\	.	.	.	.	.	.	.	.	.	.	.	.	.	.	.
16G\	8gJ 8e 8B'/	.	.	.	.	.	.	.	.	.	.	.	.	.	.
16E\JJ)	.	.	.	.	.	.	.	.	.	.	.	.	.	.	.
16G'\LL	8bL 8g 8e'/	<	.	.	.	.	.	.	.	.	.	.	4r	.	.
16F'\	.	.	.	.	.	.	.	.	.	.	.	.	.	.	.
16E'\	8eeJ 8b 8g'/	[[	.	.	.	.	.	.	.	.	.	.	.	.	.
16D'\JJ	.	.	.	.	.	.	.	.	.	.	.	.	.	.	.
!!LO:LB:g=original
=129	=129	=129	=129	=129	=129	=129	=129	=129	=129	=129	=129	=129	=129	=129	=129
*^	*	*	*	*	*	*	*	*	*	*	*	*	*	*	*
!	!	!	!	!	!	!LO:DY:cj	!	!	!	!LO:DY:cj	!	!	!	!	!	!
2C/	(>16C\LL	16eeLL 16cc 16g'\	.	(8.e/L	.	mf	(8.eeL 8.cc\	Ży-	.	mf	2ryy	.	.	4r	.	.
.	16G\	(16ee\	.	.	.	.	.	.	.	.	.	.	.	.	.	.
.	16c\	16eee 16ccc\	.	.	.	.	.	.	.	.	.	.	.	.	.	.
.	16G\JJ	16dddJJ 16bb\)	.	16f/Jk)	.	.	16ddJk 16b\)	.	.	.	.	.	.	.	.	.
!	!	!	!	!	!	!	!	!	!	!	!	!	!	!	!	!LO:DY:cj
.	16c\LL	8eeeL 8ccc 8ee'\	.	8g/	.	.	8ee 8cc\	-cie	.	.	.	.	.	4cc\	Ach!	mf
.	16G\	.	.	.	.	.	.	.	.	.	.	.	.	.	.	.
.	16c\	8cccJ 8gg 8ee'\	.	8e/	.	.	8cc 8g/	u-	.	.	.	.	.	.	.	.
.	16G\JJ)	.	.	.	.	.	.	.	.	.	.	.	.	.	.	.
=130	=130	=130	=130	=130	=130	=130	=130	=130	=130	=130	=130	=130	=130	=130	=130	=130
2C/	(>16C\LL	8bbL 8gg 8dd'\	.	(8d/L	.	.	(8bL 8g/	-mi-	.	.	2ryy	.	.	4dd\	Ży-	.
.	16G\	.	.	.	.	.	.	.	.	.	.	.	.	.	.	.
.	16B\	8ggJ 8dd 8b'\	.	8B/J)	.	.	8gJ 8d/)	.	.	.	.	.	.	.	.	.
.	16G\JJ	.	.	.	.	.	.	.	.	.	.	.	.	.	.	.
.	16B\LL	8ddL 8b 8g'/	.	4B/	.	.	4g 4d/	-li,	.	.	.	.	.	8ee\	-cie	.
.	16G\	.	.	.	.	.	.	.	.	.	.	.	.	.	.	.
.	16B\	8bJ 8g 8d'/	.	.	.	.	.	.	.	.	.	.	.	8ff\	u-	.
.	16G\JJ)	.	.	.	.	.	.	.	.	.	.	.	.	.	.	.
=131	=131	=131	=131	=131	=131	=131	=131	=131	=131	=131	=131	=131	=131	=131	=131	=131
.	.	(>8qc/	.	.	.	.	.	.	.	.	.	.	.	.	.	.
2C/	(>16C\LL	16aLL 16f\)	.	4c/	.	.	(8.aL 8.f/	Tros-	.	.	2ryy	.	.	4.ff\	-mi-	.
.	16F\	(16cc\	.	.	.	.	.	.	.	.	.	.	.	.	.	.
.	16A\	16aa 16ff\	.	.	.	.	.	.	.	.	.	.	.	.	.	.
.	16F\JJ	16bbJJ 16gg\)	.	.	.	.	16bJk 16g/)	.	.	.	.	.	.	.	.	.
.	16A\LL	8cccL 8aa'\	.	8f/	.	.	8cc 8a/	-ki	.	.	.	.	.	.	.	.
.	16F\	.	.	.	.	.	.	.	.	.	.	.	.	.	.	.
.	16A\	8aaJ 8ff 8cc'\	.	8c/	.	.	8a 8f/	u-	.	.	.	.	.	(16ee\LL	-li,	.
.	16F\JJ)	.	.	.	.	.	.	.	.	.	.	.	.	16dd\JJ)	.	.
=132	=132	=132	=132	=132	=132	=132	=132	=132	=132	=132	=132	=132	=132	=132	=132	=132
*	*	*	*	*	*	*	*^	*	*	*	*	*	*	*	*	*
2C/	(>16C\LL	8ggL 8ee 8cc'\	.	(8c/L	.	.	(8gL 8e/	4.ryy	-chy-	.	.	2ryy	.	.	(8.cc\L	Tros-	.
.	16E\	.	.	.	.	.	.	.	.	.	.	.	.	.	.	.	.
.	16G\	8eeJ 8cc 8g'\	.	8G/J)	.	.	8eJ 8c/)	.	.	.	.	.	.	.	.	.	.
.	16E\JJ	.	.	.	.	.	.	.	.	.	.	.	.	.	16b\Jk)	.	.
.	16G\LL	8ccL 8g 8e'/	.	8G/	.	.	8e 8c/	.	-li	.	.	.	.	.	8cc\	-ki	.
.	16E\	.	.	.	.	.	.	.	.	.	.	.	.	.	.	.	.
.	16G\	8gJ 8e'/	.	8c/	.	.	8e/	8e\	i	.	.	.	.	.	8dd\	u-	.
.	16E\JJ)	.	.	.	.	.	.	.	.	.	.	.	.	.	.	.	.
=133	=133	=133	=133	=133	=133	=133	=133	=133	=133	=133	=133	=133	=133	=133	=133	=133	=133
4AA/	(>16AA\LL	8f#XL 8e 8c/	.	[2c/	.	.	[2f#X/	[2e\	ra-	.	.	2ryy	.	.	(8ee\L	-chy-	.
.	16E\	.	.	.	.	.	.	.	.	.	.	.	.	.	.	.	.
!	!	!LO:S:s=1:note:problem=note-level slur	!	!	!	!	!	!	!	!	!	!	!	!	!	!	!
.	16F#X\	(16ccL 16f# 16e/	.	.	.	.	.	.	.	.	.	.	.	.	8dd#X\J)	.	.
.	16E\JJ)	16b/JJ)	.	.	.	.	.	.	.	.	.	.	.	.	.	.	.
4AA/	(>16AA\LL	8ccL 8f# 8e'/	.	.	.	.	.	.	.	.	.	.	.	.	8ff#X\	-li,	.
.	16E\	.	.	.	.	.	.	.	.	.	.	.	.	.	.	.	.
.	16A\	8eeJ 8cc 8f#'/	.	.	.	.	.	.	.	.	.	.	.	.	8ee\	i	.
.	16E\JJ)	.	.	.	.	.	.	.	.	.	.	.	.	.	.	.	.
*v	*v	*	*	*	*	*	*	*	*	*	*	*	*	*	*	*	*
!!LO:PB:g=original
=134	=134	=134	=134	=134	=134	=134	=134	=134	=134	=134	=134	=134	=134	=134	=134	=134
(16FF#X\LL	8ddnL 8a 8e'/	.	8c/]	.	.	8f#/]	8e\]	.	.	.	2ryy	.	.	(8ddn\L	ra-	.
16E\	.	.	.	.	.	.	.	.	.	.	.	.	.	.	.	.
16A\	8ccJ 8a 8e'/	.	8A/	.	.	8cc 8e/	4.ryy	-dość	.	.	.	.	.	8cc\	.	.
16E\JJ	.	.	.	.	.	.	.	.	.	.	.	.	.	.	.	.
16A\LL	8eeL 8cc 8e'/	.	8c/	.	.	8g 8e/	.	da	.	.	.	.	.	8ee\J)	.	.
16E\	.	.	.	.	.	.	.	.	.	.	.	.	.	.	.	.
16A\	8aJ 8e 8c'/	.	8c/	.	.	8a 8e/	.	bez	.	.	.	.	.	8ff#X\	-dość	.
16E\JJ)	.	.	.	.	.	.	.	.	.	.	.	.	.	.	.	.
=135	=135	=135	=135	=135	=135	=135	=135	=135	=135	=135	=135	=135	=135	=135	=135	=135
*	*^	*	*	*	*	*	*	*	*	*	*	*	*	*	*	*
(16BB\LL	8gL 8e 8B/	4ryy	.	(4B/	.	.	2b/	(4e\	koń-	.	.	2ryy	.	.	8gg\	da	.
16E\	.	.	.	.	.	.	.	.	.	.	.	.	.	.	.	.	.
16G\	8bJ 8g 8e/	.	.	.	.	.	.	.	.	.	.	.	.	.	(16dd#X\LL	bez	.
16E\JJ)	.	.	.	.	.	.	.	.	.	.	.	.	.	.	16ee\JJ)	.	.
(16BB\LL	(16ee/LL	8aL 8f#X\	.	4A/)	.	.	.	4d#X\)	.	.	.	.	.	.	(8b\L	koń-	.
16F#X\	16dd#X/	.	.	.	.	.	.	.	.	.	.	.	.	.	.	.	.
16B\	16cc#X/	8aJ 8f#\	.	.	.	.	.	.	.	.	.	.	.	.	8ff#X\J)	.	.
16F#\JJ)	16dd#/JJ)	.	.	.	.	.	.	.	.	.	.	.	.	.	.	.	.
*	*v	*v	*	*	*	*	*	*	*	*	*	*	*	*	*	*	*
=136	=136	=136	=136	=136	=136	=136	=136	=136	=136	=136	=136	=136	=136	=136	=136	=136
(16E\LL	8eeL 8g 8e'/	.	4G/	.	.	4e/	4e\	-ca	.	.	2ryy	.	.	4ee\	-ca	.
16B\	.	.	.	.	.	.	.	.	.	.	.	.	.	.	.	.
16G\	8bJ 8g 8e'/	.	.	.	.	.	.	.	.	.	.	.	.	.	.	.
16F#X\JJ	.	.	.	.	.	.	.	.	.	.	.	.	.	.	.	.
8E\)	8eeL 8b 8g'/	>	8r	.	.	8r	8ryy	.	.	.	.	.	.	8r	.	.
8r	8eeJ 8e'/	]	8e/	.	p	8e/	8e\	Dla	.	p	.	.	.	8ee\	Dla	p
*	*	*	*	*	*	*v	*v	*	*	*	*	*	*	*	*	*
=137	=137	=137	=137	=137	=137	=137	=137	=137	=137	=137	=137	=137	=137	=137	=137
8E\L	8bbL 8gg#X 8dd 8b\	p	8d/	.	.	8b 8g#X/	cie-	.	.	2ryy	.	.	4.ff\	cie-	.
16r	16r	.	(16f/LL	.	.	(16bLL 16g#/	-bie	.	.	.	.	.	.	.	.
16e'\Jk	16cccJk 16aa 16cc\	.	16e/JJ)	.	.	16ccJJ 16a/)	.	.	.	.	.	.	.	.	.
8d'\L	8dddL 8bb 8dd\	.	8d/	.	.	8dd 8b\	świat	.	.	.	.	.	.	.	.
8c'\J	8eeeJ 8ccc 8ee\	.	8c/	.	.	8ee 8cc\	u-	.	.	.	.	.	8ee\	-bie	.
=138	=138	=138	=138	=138	=138	=138	=138	=138	=138	=138	=138	=138	=138	=138	=138
8d'\L	8dddL 8bb 8dd\	.	(8d/L	.	.	(8ddL 8b\	-śmie-	.	.	2ryy	.	.	(8ff\	świat	.
8e'\J	16cccL 16aa 16cc'\	.	8e/J)	.	.	8ccJ 8a\)	.	.	.	.	.	.	4ee\)	.	.
.	16ee'\JJ	.	.	.	.	.	.	.	.	.	.	.	.	.	.
8c'\L	16aa'\LL	.	8c/	.	.	8a 8e/	-chy	.	.	.	.	.	.	.	.
.	16ee'\	.	.	.	.	.	.	.	.	.	.	.	.	.	.
8A'\J	16cc'\	.	8A/	.	.	8cc 8e/	Po-	.	.	.	.	.	8ee\	Po-	.
.	16a'\JJ	.	.	.	.	.	.	.	.	.	.	.	.	.	.
!!LO:LB:g=original
=139	=139	=139	=139	=139	=139	=139	=139	=139	=139	=139	=139	=139	=139	=139	=139
*	*	*	*	*	*	*^	*	*	*	*	*	*	*	*	*
(16E/LL	8ddL 8g#X 8e/	.	8G#X/	.	.	8e/	8e\	-wa-	.	.	2ryy	.	.	8.dd\	-wa-	.
16BB/J)	.	.	.	.	.	.	.	.	.	.	.	.	.	.	.	.
8EE'/J	16g#L 16e'/	.	(16B/LL	.	.	(16g#XLL 16e/	4.ryy	-by	.	.	.	.	.	.	.	.
.	16aJJ 16f'/	.	16c/JJ)	.	.	16aJJ 16f/)	.	.	.	.	.	.	.	16cc\	-by	.
4E\	16bLL 16g#'\	.	8d/	.	.	8bL 8e/	.	tyl-	.	.	.	.	.	8b\	tyl-	.
.	16cc'\	.	.	.	.	.	.	.	.	.	.	.	.	.	.	.
.	16dd'\	.	8B/	.	.	8g#J 8d/	.	-ko	.	.	.	.	.	8ee\	-ko	.
.	16ee'\JJ	.	.	.	.	.	.	.	.	.	.	.	.	.	.	.
=140	=140	=140	=140	=140	=140	=140	=140	=140	=140	=140	=140	=140	=140	=140	=140	=140
*^	*	*	*	*	*	*	*	*	*	*	*	*	*	*	*	*
4AA/	8AA\L	16ff#XLL 16ee 16f#X'\	<	(8B/	.	.	(8e (8d/	4.ryy	ma	.	.	2ryy	.	.	(4ee\	ma,	.
.	.	16gg#X 16g#X'\	.	.	.	.	.	.	.	.	.	.	.	.	.	.	.
.	8AJ 8E\	16ccc 16cc'\	.	4A/)	.	.	4a 4c/))	.	.	.	.	.	.	.	.	.	.
.	.	16bbJJ 16b'\	[	.	.	.	.	.	.	.	.	.	.	.	.	.	.
4r	4ryy	16aaLL 16a'\	.	.	.	.	.	.	.	.	.	.	.	.	8a/)	.	.
.	.	16ee'\	.	.	.	.	.	.	.	.	.	.	.	.	.	.	.
.	.	16cc'\	.	8a/	.	f	8a/	8a\	Za	.	f	.	.	.	8r	.	.
.	.	16a'\JJ	.	.	.	.	.	.	.	.	.	.	.	.	.	.	.
*v	*v	*	*	*	*	*	*	*	*	*	*	*	*	*	*	*	*
=141	=141	=141	=141	=141	=141	=141	=141	=141	=141	=141	=141	=141	=141	=141	=141	=141
8A\L	16ddLL 16f'\	f	8f/	.	.	8dd/	8a\	tros-	.	.	2ryy	.	.	8r	.	.
.	(16a\	.	.	.	.	.	.	.	.	.	.	.	.	.	.	.
16f'\L	16aa 16ff\)	.	(16f/LL	.	.	(16dd/LL	8a\	-ki	.	.	.	.	.	8a/	Za	f
16e'\JJ	16ggJJ 16cc'\	.	16e/JJ)	.	.	16ee/JJ)	.	.	.	.	.	.	.	.	.	.
8d'\L	16ffLL 16a'\	.	8d/	.	.	8ff 8a\	4ryy	on	.	.	.	.	.	8dd\	tros-	.
.	16gg'\	.	.	.	.	.	.	.	.	.	.	.	.	.	.	.
8c'\J	16aa 16a'\	.	8c/	.	.	8ee 8a\	.	po-	.	.	.	.	.	8ee\	-ki	.
.	16ee'\JJ	.	.	.	.	.	.	.	.	.	.	.	.	.	.	.
*	*	*	*	*	*	*v	*v	*	*	*	*	*	*	*	*	*
=142	=142	=142	=142	=142	=142	=142	=142	=142	=142	=142	=142	=142	=142	=142	=142
8fL 8A'\	16ddLL 16a'\	.	(8f/L	.	.	(8ddL 8a/	-cie-	.	.	2ryy	.	.	8.gg\	on	.
.	16a'\	.	.	.	.	.	.	.	.	.	.	.	.	.	.
8dJ 8A'\	16dd'\	.	8d/J)	.	.	8aJ 8f/)	.	.	.	.	.	.	.	.	.
.	16ff'\JJ	.	.	.	.	.	.	.	.	.	.	.	16ff\	po-	.
8cL 8A'\	16aaLL 16ee 16a'\	.	8c/	.	.	8cc 8e/	-chy	.	.	.	.	.	8a/	-cie-	.
.	16gg'\	.	.	.	.	.	.	.	.	.	.	.	.	.	.
8D'\J	16ff 16dd'\	.	8d/	.	.	8f 8d/	Roz-	.	.	.	.	.	8b\	-chy	.
.	16ddJJ 16b'\	.	.	.	.	.	.	.	.	.	.	.	.	.	.
=143	=143	=143	=143	=143	=143	=143	=143	=143	=143	=143	=143	=143	=143	=143	=143
*	*^	*	*	*	*	*^	*	*	*	*	*	*	*	*	*
(16E/LL	8ffL 8b 8a'\	4ryy	.	8B/	.	.	8a 8d/	8ryy	-ko-	.	.	2ryy	.	.	(8b\	to-	.
16BB/	.	.	.	.	.	.	.	.	.	.	.	.	.	.	.	.	.
16EE/	8eeJ 8b 8g#X'\	.	.	8B/	.	.	(16g#X/LL	8d\	-sze	.	.	.	.	.	4ee\)	.	.
16BB/JJ)	.	.	.	.	.	.	16e/JJ)	.	.	.	.	.	.	.	.	.	.
8E'\L	(16g#X/LL	8d\L	.	8B/	.	.	8g# 8d/	4ryy	to-	.	.	.	.	.	.	.	.
.	16dd/	.	.	.	.	.	.	.	.	.	.	.	.	.	.	.	.
8E'\J	16b/	8d\J	.	8d/	.	.	8b 8e/	.	-bie	.	.	.	.	.	8g#X/	-bie	.
.	16g#/JJ)	.	.	.	.	.	.	.	.	.	.	.	.	.	.	.	.
*	*v	*v	*	*	*	*	*v	*v	*	*	*	*	*	*	*	*	*
!!LO:LB:g=original
=144	=144	=144	=144	=144	=144	=144	=144	=144	=144	=144	=144	=144	=144	=144	=144
(16AA\LL	4a 4c/	>	2c/	.	>]	2a 2e/	da	.	>]	2ryy	.	.	(2a/	da	.
16E\	.	.	.	.	.	.	.	.	.	.	.	.	.	.	.
16F\	.	.	.	.	.	.	.	.	.	.	.	.	.	.	.
16E\JJ)	.	.	.	.	.	.	.	.	.	.	.	.	.	.	.
(16A\LL	8eL 8c'/	.	.	.	.	.	.	.	.	.	.	.	.	.	.
16E\	.	.	.	.	.	.	.	.	.	.	.	.	.	.	.
16C\	8aJ 8e'/	]]	.	.	.	.	.	.	.	.	.	.	.	.	.
16BB\JJ)	.	.	.	.	.	.	.	.	.	.	.	.	.	.	.
=145	=145	=145	=145	=145	=145	=145	=145	=145	=145	=145	=145	=145	=145	=145	=145
*	*	*	*	*	*	*^	*	*	*	*	*	*	*	*	*
!	!	!	!	!	!LO:DY:cj	!	!	!	!	!LO:DY:cj	!	!	!	!	!	!
(16AA\LL	8ccL 8f 8c'/	.	(4c/	.	mf	(8f/L	4f\	A	.	mf	2ryy	.	.	2ff\	.	.
16F\	.	.	.	.	.	.	.	.	.	.	.	.	.	.	.	.
16A\	8ffJ 8cc 8f'/	.	.	.	.	16a/L	.	.	.	.	.	.	.	.	.	.
16F\JJ	.	.	.	.	.	16b/JJ	.	.	.	.	.	.	.	.	.	.
16A\LL	8aaL 8ff 8cc'\	.	8f/L	.	.	8cc/L	8a\L	.	.	.	.	.	.	.	.	.
16G\J	.	.	.	.	.	.	.	.	.	.	.	.	.	.	.	.
8F\J)	8dd#XJ 8b 8a'\	.	8a/J	.	.	8dd#X/J	8b\J	.	.	.	.	.	.	.	.	.
=146	=146	=146	=146	=146	=146	=146	=146	=146	=146	=146	=146	=146	=146	=146	=146	=146
(16AA\LL	8eeL 8cc 8a'\	.	8a/L	.	.	8ee/L	8cc\L	.	.	.	2ryy	.	.	4.ee\)	.	.
16E\	.	.	.	.	.	.	.	.	.	.	.	.	.	.	.	.
16A\	8aaJ 8ee 8cc'\	.	8e/J	.	.	8cc/J	8a\J	.	.	.	.	.	.	.	.	.
16E\JJ	.	.	.	.	.	.	.	.	.	.	.	.	.	.	.	.
16A\LL	8eeL 8cc 8a'/	.	4a/)	.	.	4ee/)	4cc\	.	.	.	.	.	.	.	.	.
16F\J	.	.	.	.	.	.	.	.	.	.	.	.	.	.	.	.
!	!	!	!	!	!	!	!	!	!	!	!	!	!	!	!	!LO:DY:cj
8E\J)	8ccJ 8a 8e'/	.	.	.	.	.	.	.	.	.	.	.	.	8ee\	Roz-	mf
*	*	*	*	*	*	*v	*v	*	*	*	*	*	*	*	*	*
=147	=147	=147	=147	=147	=147	=147	=147	=147	=147	=147	=147	=147	=147	=147	=147
(16AA\LL	8bL 8g#X 8d'/	.	(8d/L	.	.	(8bL 8g#X/	A	.	.	2ryy	.	.	8ee\	-ko-	.
16E\	.	.	.	.	.	.	.	.	.	.	.	.	.	.	.
16F\	8eeJ 8b 8g#'/	.	8B/J	.	.	8g#XJ 8d/	.	.	.	.	.	.	(16dd\LL	-sze	.
16E\JJ	.	.	.	.	.	.	.	.	.	.	.	.	16cc\JJ)	.	.
16F\LL	8bL 8g# 8d'/	.	4d/	.	.	4b 4g#/	.	.	.	.	.	.	8b\	to-	.
16E\	.	.	.	.	.	.	.	.	.	.	.	.	.	.	.
16AA\	8g#J 8d 8B'/	.	.	.	.	.	.	.	.	.	.	.	8g#X/	-bie	.
16E\JJ)	.	.	.	.	.	.	.	.	.	.	.	.	.	.	.
=148	=148	=148	=148	=148	=148	=148	=148	=148	=148	=148	=148	=148	=148	=148	=148
(16AA\LL	8eL 8c 8A'/	.	8c/L	.	.	8aL 8e/	.	.	.	2ryy	.	.	(4e/	da	.
16E\	.	.	.	.	.	.	.	.	.	.	.	.	.	.	.
16F\	8aJ 8e 8c'/	.	8A/J	.	.	8eJ 8c/	.	.	.	.	.	.	.	.	.
16E\JJ	.	.	.	.	.	.	.	.	.	.	.	.	.	.	.
16F\LL	8ccL 8a 8e'/	.	4c/)	.	.	4a 4e/)	.	.	.	.	.	.	[4ee\	.	.
16E\	.	.	.	.	.	.	.	.	.	.	.	.	.	.	.
16AA\	8aJ 8e 8c'/	.	.	.	.	.	.	.	.	.	.	.	.	.	.
16E\JJ)	.	.	.	.	.	.	.	.	.	.	.	.	.	.	.
!!LO:PB:g=original
=149	=149	=149	=149	=149	=149	=149	=149	=149	=149	=149	=149	=149	=149	=149	=149
*	*^	*	*	*	*	*^	*	*	*	*	*	*	*	*	*
(16AA\LL	8fL 8c/	4ryy	.	(4c/	.	.	(8f/L	(4f\	A	.	.	2ryy	.	.	8ee\L]	.	.
16F\	.	.	.	.	.	.	.	.	.	.	.	.	.	.	.	.	.
16A\	16a/L	.	.	.	.	.	16a/L	.	.	.	.	.	.	.	8dd#X\J	.	.
16F\JJ	16b/JJ	.	.	.	.	.	16b/JJ	.	.	.	.	.	.	.	.	.	.
16A\LL	8ccL 8a/	4f\	.	4f/	.	.	8cc/L	8a\L	.	.	.	.	.	.	4a/	.	.
16F\	.	.	.	.	.	.	.	.	.	.	.	.	.	.	.	.	.
16AA\	8dd#XJ 8b/	.	.	.	.	.	8dd#X/J	8b\J	.	.	.	.	.	.	.	.	.
16F\JJ)	.	.	.	.	.	.	.	.	.	.	.	.	.	.	.	.	.
*	*v	*v	*	*	*	*	*	*	*	*	*	*	*	*	*	*	*
=150	=150	=150	=150	=150	=150	=150	=150	=150	=150	=150	=150	=150	=150	=150	=150	=150
(16GG#X/LL	8eeL 8b 8e'\	.	4.e/)	.	.	8ee/L	4.b\)	.	.	.	2ryy	.	.	4b\)	.	.
16E/	.	.	.	.	.	.	.	.	.	.	.	.	.	.	.	.
16F/	8bbJ 8ee 8b'\	.	.	.	.	8b/	.	.	.	.	.	.	.	.	.	.
16E/JJ	.	.	.	.	.	.	.	.	.	.	.	.	.	.	.	.
16F/LL	8ddL 8b 8e'\	.	.	.	.	8ee/J)	.	.	.	.	.	.	.	4r	.	.
16E/	.	.	.	.	.	.	.	.	.	.	.	.	.	.	.	.
16GG#/	8ffJ 8dd'\	.	8e/	.	.	8dd/	8b\	Roz-	.	.	.	.	.	.	.	.
16E/JJ)	.	.	.	.	.	.	.	.	.	.	.	.	.	.	.	.
=151	=151	=151	=151	=151	=151	=151	=151	=151	=151	=151	=151	=151	=151	=151	=151	=151
(16AA\LL	8aaL 8ee 8cc'\	.	4e/	.	.	([4cc/	4a\	-ko-	.	.	2ryy	.	.	2r	.	.
16E\	.	.	.	.	.	.	.	.	.	.	.	.	.	.	.	.
16A\	8eeJ 8cc 8a'\	.	.	.	.	.	.	.	.	.	.	.	.	.	.	.
16E\JJ	.	.	.	.	.	.	.	.	.	.	.	.	.	.	.	.
8A\)	8cc 8a 8e'/	.	4c/	.	.	16cc/LL]	4e\	.	.	.	.	.	.	.	.	.
.	.	.	.	.	.	16dd/JJ)	.	.	.	.	.	.	.	.	.	.
8r	8r	.	.	.	.	(16cc/LL	.	-sze	.	.	.	.	.	.	.	.
.	.	.	.	.	.	16a/JJ)	.	.	.	.	.	.	.	.	.	.
=152	=152	=152	=152	=152	=152	=152	=152	=152	=152	=152	=152	=152	=152	=152	=152	=152
(<16EE/LL	8eeL 8g#X 8d/	.	(8B/L	.	.	(8g#X/L	(8d\L	to-	.	.	2ryy	.	.	2r	.	.
16E/	.	.	.	.	.	.	.	.	.	.	.	.	.	.	.	.
16BB/	8ddJ 8g# 8e/	.	8d/J)	.	.	8e/J)	8e\J)	.	.	.	.	.	.	.	.	.
16EE/JJ	.	.	.	.	.	.	.	.	.	.	.	.	.	.	.	.
8E\)	8b 8g# 8d/	.	4d/	.	.	4b/	4g#\	-bie	.	.	.	.	.	.	.	.
8r	8r	.	.	.	.	.	.	.	.	.	.	.	.	.	.	.
=153	=153	=153	=153	=153	=153	=153	=153	=153	=153	=153	=153	=153	=153	=153	=153	=153
(16AA\LL	2a 2c/	.	(2c/	.	.	(2a/	[2a\	da	.	.	2ryy	.	.	8r	.	.
16E\	.	.	.	.	.	.	.	.	.	.	.	.	.	.	.	.
16F\	.	.	.	.	.	.	.	.	.	.	.	.	.	8a/	Roz-	p
16E\JJ	.	.	.	.	.	.	.	.	.	.	.	.	.	.	.	.
16A\LL	.	.	.	.	.	.	.	.	.	.	.	.	.	8b\	-ko-	.
16E\	.	.	.	.	.	.	.	.	.	.	.	.	.	.	.	.
16A\	.	.	.	.	.	.	.	.	.	.	.	.	.	8cc\	-sze	.
16E\JJ)	.	.	.	.	.	.	.	.	.	.	.	.	.	.	.	.
=154	=154	=154	=154	=154	=154	=154	=154	=154	=154	=154	=154	=154	=154	=154	=154	=154
(16AA/LL	4b 4a 4f/	.	(2f/)	.	<[	2b/	(2a\]	.	.	<[	2ryy	.	.	(8dd\L	to-	.
16D/	.	.	.	.	.	.	.	.	.	.	.	.	.	.	.	.
16E/	.	.	.	.	.	.	.	.	.	.	.	.	.	8cc\J)	.	.
16D/JJ	.	.	.	.	.	.	.	.	.	.	.	.	.	.	.	.
16A\LL	8ffL 8b 8a'\	.	.	.	.	.	.	.	.	.	.	.	.	4dd\	-bie	.
16D\	.	.	.	.	.	.	.	.	.	.	.	.	.	.	.	.
16A\	8bJ 8a 8f'\	.	.	.	.	.	.	.	.	.	.	.	.	.	.	.
16D\JJ)	.	.	.	.	.	.	.	.	.	.	.	.	.	.	.	.
*	*	*	*	*	*	*v	*v	*	*	*	*	*	*	*	*	*
!!LO:LB:g=original
=155	=155	=155	=155	=155	=155	=155	=155	=155	=155	=155	=155	=155	=155	=155	=155
(16AA/LL	4ee 4cc 4g\	.	(2e/)	.	.	2cc 2gn/	.	.	.	2ryy	.	.	(2ee\	da!	.
16C/	.	.	.	.	.	.	.	.	.	.	.	.	.	.	.
16D/	.	.	.	.	.	.	.	.	.	.	.	.	.	.	.
16C/JJ)	.	.	.	.	.	.	.	.	.	.	.	.	.	.	.
16G\LL	8ccL 8g 8e'/	.	.	.	.	.	.	.	.	.	.	.	.	.	.
16C\	.	.	.	.	.	.	.	.	.	.	.	.	.	.	.
16G\	8eeJ 8cc 8g'/	.	.	.	.	.	.	.	.	.	.	.	.	.	.
16C\JJ	.	.	.	.	.	.	.	.	.	.	.	.	.	.	.
=156	=156	=156	=156	=156	=156	=156	=156	=156	=156	=156	=156	=156	=156	=156	=156
(16AA\LL	8eeL 8b 8g#X/	.	2d/)	.	.	2b 2g#X/))	.	.	.	2ryy	.	.	(2gg#X\)	.	.
16E\	.	.	.	.	.	.	.	.	.	.	.	.	.	.	.
16F\	8dd 8g# 8f/	.	.	.	.	.	.	.	.	.	.	.	.	.	.
16E\JJ	.	.	.	.	.	.	.	.	.	.	.	.	.	.	.
16B\LL	8b 8g# 8d/	.	.	.	.	.	.	.	.	.	.	.	.	.	.
16E\	.	.	.	.	.	.	.	.	.	.	.	.	.	.	.
16F\	8eeJ 8dd 8g#/	.	.	.	.	.	.	.	.	.	.	.	.	.	.
16E\JJ)	.	.	.	.	.	.	.	.	.	.	.	.	.	.	.
=157	=157	=157	=157	=157	=157	=157	=157	=157	=157	=157	=157	=157	=157	=157	=157
*	*	*	*	*	*	*^	*	*	*	*	*	*	*	*	*
(16AA/LL	8ee 8cc 8a\	pp	(2c/	.	pp	((2a/	2a\	A	.	pp	2ryy	.	.	8ee\)	.	.
16C/	.	.	.	.	.	.	.	.	.	.	.	.	.	.	.	.
!	!	!	!	!	!	!	!	!	!	!	!	!	!	!	!	!LO:HP:t=diminuendo
16D/	4aa 4cc 4a\	.	.	.	.	.	.	.	.	.	.	.	.	8cc\	Roz-	>
16C/JJ)	.	.	.	.	.	.	.	.	.	.	.	.	.	.	.	.
(16FF\LL	.	.	.	.	.	.	.	.	.	.	.	.	.	8dd\	-ko-	.
16C\	.	.	.	.	.	.	.	.	.	.	.	.	.	.	.	.
16A\	8aa 8cc 8a\	.	.	.	.	.	.	.	.	.	.	.	.	8ee\	-sze	.
16C\JJ)	.	.	.	.	.	.	.	.	.	.	.	.	.	.	.	.
*	*	*	*	*	*	*v	*v	*	*	*	*	*	*	*	*	*
=158	=158	=158	=158	=158	=158	=158	=158	=158	=158	=158	=158	=158	=158	=158	=158
(16DD/LL	8ggnL 8b 8f'\	.	2f/	.	.	2b 2gn/	.	.	.	2ryy	.	.	4.ggn\	to-	.
16D/	.	.	.	.	.	.	.	.	.	.	.	.	.	.	.
16E/	8ffJ 8b 8g'\	.	.	.	.	.	.	.	.	.	.	.	.	.	.
16D/JJ	.	.	.	.	.	.	.	.	.	.	.	.	.	.	.
16G\LL	8ddL 8b 8f'\	.	.	.	.	.	.	.	.	.	.	.	.	.	.
16D\	.	.	.	.	.	.	.	.	.	.	.	.	.	.	.
16E\	8ggJ 8b 8f'\	.	.	.	.	.	.	.	.	.	.	.	8ff\	-bie	.
16D\JJ)	.	.	.	.	.	.	.	.	.	.	.	.	.	.	.
=159	=159	=159	=159	=159	=159	=159	=159	=159	=159	=159	=159	=159	=159	=159	=159
(16CC/LL	8ggL 8cc 8e'\	.	(2e/)	.	.	(2cc (2g/))	.	.	.	2ryy	.	.	2ee\	da!	.
16GG/	.	.	.	.	.	.	.	.	.	.	.	.	.	.	.
16C/	8eeJ 8cc 8g'\	.	.	.	.	.	.	.	.	.	.	.	.	.	.
16D/JJ	.	.	.	.	.	.	.	.	.	.	.	.	.	.	.
16E\LL	8ccL 8g 8e'/	.	.	.	.	.	.	.	.	.	.	.	.	.	.
16G\J	.	.	.	.	.	.	.	.	.	.	.	.	.	.	.
8c\J)	8eeJ 8cc 8g'/	.	.	.	.	.	.	.	.	.	.	.	.	.	.
=160	=160	=160	=160	=160	=160	=160	=160	=160	=160	=160	=160	=160	=160	=160	=160
(16EE/LL	8eeL 8dd 8g#X'\	.	(2d/)	.	.	(2b (2g#X/))	.	.	.	2ryy	.	.	(2gg#X\	A	.
16BB/	.	.	.	.	.	.	.	.	.	.	.	.	.	.	.
16C/	8ffJ 8dd 8g#'\	.	.	.	.	.	.	.	.	.	.	.	.	.	.
16BB/JJ	.	.	.	.	.	.	.	.	.	.	.	.	.	.	.
16E\LL	8eeL 8dd 8g#'/	.	.	.	.	.	.	.	.	.	.	.	.	.	.
16F\J	.	.	.	.	.	.	.	.	.	.	.	.	.	.	.
8E\J)	8bJ 8g# 8d'/	.	.	.	.	.	.	.	.	.	.	.	.	.	.
!!LO:LB:g=original
=161	=161	=161	=161	=161	=161	=161	=161	=161	=161	=161	=161	=161	=161	=161	=161
(16AA\LL	8ccL 8e 8c'/	.	[2c/)	.	.	[2a [2e/))	.	.	.	2ryy	.	.	[2aa\)	.	.
16D#X\	.	.	.	.	.	.	.	.	.	.	.	.	.	.	.
16F\	8a 8e 8c'/	.	.	.	.	.	.	.	.	.	.	.	.	.	.
16E\JJ	.	.	.	.	.	.	.	.	.	.	.	.	.	.	.
16A\LL	8e 8c'/	.	.	.	.	.	.	.	.	.	.	.	.	.	.
16E\	.	.	.	.	.	.	.	.	.	.	.	.	.	.	.
16F\	8aJ 8c'/	.	.	.	.	.	.	.	.	.	.	.	.	.	.
16E\JJ)	.	.	.	.	.	.	.	.	.	.	.	.	.	.	.
=162	=162	=162	=162	=162	=162	=162	=162	=162	=162	=162	=162	=162	=162	=162	=162
(16AA\LL	8ccL 8a 8e'/	.	2c/_	.	.	2a_ 2e/_	.	.	.	2ryy	.	.	2aa\_	.	.
16E\	.	.	.	.	.	.	.	.	.	.	.	.	.	.	.
16A\	8aJ 8e 8c'/	.	.	.	.	.	.	.	.	.	.	.	.	.	.
16E\JJ	.	.	.	.	.	.	.	.	.	.	.	.	.	.	.
16A\LL	8eeL 8cc 8e'/	.	.	.	.	.	.	.	.	.	.	.	.	.	.
16E\	.	.	.	.	.	.	.	.	.	.	.	.	.	.	.
16A\	8ccJ 8a 8e'/	.	.	.	.	.	.	.	.	.	.	.	.	.	.
16E\JJ)	.	.	.	.	.	.	.	.	.	.	.	.	.	.	.
=163	=163	=163	=163	=163	=163	=163	=163	=163	=163	=163	=163	=163	=163	=163	=163
(16AA\LL	8aaL 8cc 8a'\	.	2c/_	.	.	2a_ 2e/_	.	.	.	2ryy	.	.	2aa\_	.	.
16D#X\	.	.	.	.	.	.	.	.	.	.	.	.	.	.	.
16F\	8ee 8cc 8a'\	.	.	.	.	.	.	.	.	.	.	.	.	.	.
16E\JJ	.	.	.	.	.	.	.	.	.	.	.	.	.	.	.
16A\LL	8cc 8a'\	.	.	.	.	.	.	.	.	.	.	.	.	.	.
16E\	.	.	.	.	.	.	.	.	.	.	.	.	.	.	.
16F\	8eeJ 8cc 8a'\	.	.	.	.	.	.	.	.	.	.	.	.	.	.
16E\JJ)	.	.	.	.	.	.	.	.	.	.	.	.	.	.	.
=164	=164	=164	=164	=164	=164	=164	=164	=164	=164	=164	=164	=164	=164	=164	=164
(16AA\LL	8aaL 8cc 8a'\	.	2c/_	.	.	2a_ 2e/_	.	.	.	2ryy	.	.	2aa\_	.	.
16E\	.	.	.	.	.	.	.	.	.	.	.	.	.	.	.
16A\	8eeJ 8cc 8a'\	.	.	.	.	.	.	.	.	.	.	.	.	.	.
16E\JJ	.	.	.	.	.	.	.	.	.	.	.	.	.	.	.
16A\LL	8cccL 8ee 8cc'\	.	.	.	.	.	.	.	.	.	.	.	.	.	.
16E\	.	.	.	.	.	.	.	.	.	.	.	.	.	.	.
16A\	8eeeJ 8ccc 8ee'\	.	.	.	.	.	.	.	.	.	.	.	.	.	.
16E\JJ)	.	.	.	.	.	.	.	.	.	.	.	.	.	.	.
=165	=165	=165	=165	=165	=165	=165	=165	=165	=165	=165	=165	=165	=165	=165	=165
*	*8va	*	*	*	*	*	*	*	*	*	*	*	*	*	*
4AA/	4aaa 4eee 4ccc 4aa\	.	4c/_	.	.	4a_ 4e/_	.	.	.	2ryy	.	.	4aa\_	.	.
*	*X8va	*	*	*	*	*	*	*	*	*	*	*	*	*	*
4r	4r	.	8c/]	.	.	8a] 8e/]	.	.	.	.	.	.	8aa\]	.	.
.	.	.	8r	.	.	8r	.	.	.	.	.	.	8r	.	.
=166	=166	=166	=166	=166	=166	=166	=166	=166	=166	=166	=166	=166	=166	=166	=166
2E 2AA/	2a 2e 2c 2A/	pp	2r	.	.	2r	.	.	.	2ryy	.	.	2r	.	.
=167	=167	=167	=167	=167	=167	=167	=167	=167	=167	=167	=167	=167	=167	=167	=167
2AA 2AAA;/	2a 2e 2c 2A;/	.	2r;	.	.	2r;	.	.	.	2ryy	.	.	2r;	.	.
!!LO:PB:g=original
=168||	=168||	=168||	=168||	=168||	=168||	=168||	=168||	=168||	=168||	=168||	=168||	=168||	=168||	=168||	=168||
*M6/8	*M6/8	*	*M6/8	*	*	*M6/8	*	*	*	*M6/8	*	*	*M6/8	*	*
!	!LO:TX:a:B:t=Andante.	!	!	!	!	!	!	!	!	!	!	!	!	!	!
!	!LO:TX:a:t=(Podczas chóru Livia się zbudziła. Lwolna się podnosi i opiera na ręku.)	!	!	!	!	!	!	!	!	!	!	!	!	!	!
2.r	(<2.cc\	.	2.ryy	.	.	2.ryy	.	.	.	2.ryy	.	.	2.ryy	.	.
=169	=169	=169	=169	=169	=169	=169	=169	=169	=169	=169	=169	=169	=169	=169	=169
2.r	8a/L	.	2.ryy	.	.	2.ryy	.	.	.	2.ryy	.	.	2.ryy	.	.
.	8g/	.	.	.	.	.	.	.	.	.	.	.	.	.	.
.	8e/J	.	.	.	.	.	.	.	.	.	.	.	.	.	.
.	(8qg/	.	.	.	.	.	.	.	.	.	.	.	.	.	.
.	8f/L)	.	.	.	.	.	.	.	.	.	.	.	.	.	.
.	8d/	.	.	.	.	.	.	.	.	.	.	.	.	.	.
.	16e/L	.	.	.	.	.	.	.	.	.	.	.	.	.	.
.	16d/JJ)	.	.	.	.	.	.	.	.	.	.	.	.	.	.
=170	=170	=170	=170	=170	=170	=170	=170	=170	=170	=170	=170	=170	=170	=170	=170
2.r	(4.c/	.	2.ryy	.	.	2.ryy	.	.	.	2.ryy	.	.	2.ryy	.	.
.	16f/LL	.	.	.	.	.	.	.	.	.	.	.	.	.	.
.	16d/J	.	.	.	.	.	.	.	.	.	.	.	.	.	.
.	8e/	.	.	.	.	.	.	.	.	.	.	.	.	.	.
.	8B/J	.	.	.	.	.	.	.	.	.	.	.	.	.	.
=171	=171	=171	=171	=171	=171	=171	=171	=171	=171	=171	=171	=171	=171	=171	=171
2.r	2.c/)	.	2.ryy	.	.	2.ryy	.	.	.	2.ryy	.	.	2.ryy	.	.
*	*clefF4	*	*	*	*	*	*	*	*	*	*	*	*	*	*
=172	=172	=172	=172	=172	=172	=172	=172	=172	=172	=172	=172	=172	=172	=172	=172
*	*^	*	*	*	*	*	*	*	*	*	*	*	*	*	*
[2.EE-X [2.AAA-X/	(8c/L	(4.C\	.	2.ryy	.	.	2.ryy	.	.	.	2.ryy	.	.	2.ryy	.	.
.	8B-X/	.	.	.	.	.	.	.	.	.	.	.	.	.	.	.
.	8A-X/J	.	.	.	.	.	.	.	.	.	.	.	.	.	.	.
.	8G/L	4.D-X\)	.	.	.	.	.	.	.	.	.	.	.	.	.	.
.	8F/	.	.	.	.	.	.	.	.	.	.	.	.	.	.	.
.	8G/J)	.	.	.	.	.	.	.	.	.	.	.	.	.	.	.
=173	=173	=173	=173	=173	=173	=173	=173	=173	=173	=173	=173	=173	=173	=173	=173	=173
4.EE-_ 4.AAA-/_	(16A-X/LL	[4.C\	.	2.ryy	.	.	2.ryy	.	.	.	2.ryy	.	.	2.ryy	.	.
!	!LO:SIC:v:s=16B-/JJ	!	!	!	!	!	!	!	!	!	!	!	!	!	!	!
.	(16B/JJ	.	.	.	.	.	.	.	.	.	.	.	.	.	.	.
.	4A-/)	.	.	.	.	.	.	.	.	.	.	.	.	.	.	.
4EE-] 4AAA-/]	4A-/)	4C\]	.	.	.	.	.	.	.	.	.	.	.	.	.	.
8r;	8r;	8ryy	.	.	.	.	.	.	.	.	.	.	.	.	.	.
=174	=174	=174	=174	=174	=174	=174	=174	=174	=174	=174	=174	=174	=174	=174	=174	=174
[2.GG [2.CC/	(8e-X/L	(4.E-X\	mf	2.ryy	.	.	2.ryy	.	.	.	2.ryy	.	.	2.ryy	.	.
.	8dn/	.	.	.	.	.	.	.	.	.	.	.	.	.	.	.
.	8c/J	.	.	.	.	.	.	.	.	.	.	.	.	.	.	.
.	8Bn/L	4.F\)	.	.	.	.	.	.	.	.	.	.	.	.	.	.
.	8An/	.	.	.	.	.	.	.	.	.	.	.	.	.	.	.
.	8B/J)	.	.	.	.	.	.	.	.	.	.	.	.	.	.	.
!!LO:LB:g=original
=175	=175	=175	=175	=175	=175	=175	=175	=175	=175	=175	=175	=175	=175	=175	=175	=175
!	!LO:TX:a:B:t=Poco più mosso.	!	!	!	!	!	!	!	!	!	!	!	!	!	!	!
4.GG_ 4.CC/_	(16c/LL	[4.E-X\	.	2.ryy	.	.	2.ryy	.	.	.	2.ryy	.	.	2.ryy	.	.
.	16d/JJ)	.	.	.	.	.	.	.	.	.	.	.	.	.	.	.
.	[4c/	.	.	.	.	.	.	.	.	.	.	.	.	.	.	.
8GG] 8CC/]	16c/LL]	8E-\]	.	.	.	.	.	.	.	.	.	.	.	.	.	.
.	(16G/	.	.	.	.	.	.	.	.	.	.	.	.	.	.	.
8r	16B/	8r	.	.	.	.	.	.	.	.	.	.	.	.	.	.
.	16c/	.	.	.	.	.	.	.	.	.	.	.	.	.	.	.
8r	16d/	8r	.	.	.	.	.	.	.	.	.	.	.	.	.	.
.	16e-X/JJ)	.	.	.	.	.	.	.	.	.	.	.	.	.	.	.
*	*v	*v	*	*	*	*	*	*	*	*	*	*	*	*	*	*
*	*clefG2	*	*	*	*	*	*	*	*	*	*	*	*	*	*
=176	=176	=176	=176	=176	=176	=176	=176	=176	=176	=176	=176	=176	=176	=176	=176
2.r	(16f#X\LL	.	2.ryy	.	.	2.ryy	.	.	.	2.ryy	.	.	2.ryy	.	.
.	16g\	.	.	.	.	.	.	.	.	.	.	.	.	.	.
.	16b\	.	.	.	.	.	.	.	.	.	.	.	.	.	.
.	16cc\	>	.	.	.	.	.	.	.	.	.	.	.	.	.
.	16ee-X\	.	.	.	.	.	.	.	.	.	.	.	.	.	.
.	16aa-X\JJ	.	.	.	.	.	.	.	.	.	.	.	.	.	.
.	4.gg\)	]	.	.	.	.	.	.	.	.	.	.	.	.	.
*clefG2	*	*	*	*	*	*	*	*	*	*	*	*	*	*	*
=177	=177	=177	=177	=177	=177	=177	=177	=177	=177	=177	=177	=177	=177	=177	=177
(8ee-X\L	(8aanL 8gg\	p <	2.ryy	.	.	2.ryy	.	.	.	2.ryy	.	.	2.ryy	.	.
8ff 8dd\	8bb 8gg\	.	.	.	.	.	.	.	.	.	.	.	.	.	.
8ee-J 8cc\	8cccJ 8aa-X\	.	.	.	.	.	.	.	.	.	.	.	.	.	.
8dd 8b\)	8ddd 8gg\)	[	.	.	.	.	.	.	.	.	.	.	.	.	.
*tremolo	*tremolo	*	*	*	*	*	*	*	*	*	*	*	*	*	*
!	!LO:TX:b:t=trem.	!	!	!	!	!	!	!	!	!	!	!	!	!	!
32a-X\LLL	32ff#X\LLL	.	.	.	.	.	.	.	.	.	.	.	.	.	.
32cc\	32eee-\	.	.	.	.	.	.	.	.	.	.	.	.	.	.
32a-\	32ff#\	.	.	.	.	.	.	.	.	.	.	.	.	.	.
32cc\	32eee-\	.	.	.	.	.	.	.	.	.	.	.	.	.	.
32a-\	32ff#\	.	.	.	.	.	.	.	.	.	.	.	.	.	.
32cc\	32eee-\	.	.	.	.	.	.	.	.	.	.	.	.	.	.
32a-\	32ff#\	.	.	.	.	.	.	.	.	.	.	.	.	.	.
32cc\JJJ	32eee-X\JJJ	.	.	.	.	.	.	.	.	.	.	.	.	.	.
=178	=178	=178	=178	=178	=178	=178	=178	=178	=178	=178	=178	=178	=178	=178	=178
32a-XLLL 32d/	32ff#X\LLL	<	2.ryy	.	.	2.ryy	.	.	.	2.ryy	.	.	2.ryy	.	.
32cc/	32eee-\	.	.	.	.	.	.	.	.	.	.	.	.	.	.
32a- 32d/	32ff#\	.	.	.	.	.	.	.	.	.	.	.	.	.	.
32cc/	32eee-\	.	.	.	.	.	.	.	.	.	.	.	.	.	.
32a- 32d/	32ff#\	.	.	.	.	.	.	.	.	.	.	.	.	.	.
32cc/	32eee-\	.	.	.	.	.	.	.	.	.	.	.	.	.	.
32a- 32d/	32ff#\	.	.	.	.	.	.	.	.	.	.	.	.	.	.
32cc/	32eee-\	.	.	.	.	.	.	.	.	.	.	.	.	.	.
32a- 32d/	32ff#\	.	.	.	.	.	.	.	.	.	.	.	.	.	.
32cc/	32eee-\	.	.	.	.	.	.	.	.	.	.	.	.	.	.
32a- 32d/	32ff#\	.	.	.	.	.	.	.	.	.	.	.	.	.	.
32cc/	32eee-\	.	.	.	.	.	.	.	.	.	.	.	.	.	.
32a- 32d/	32ff#\	.	.	.	.	.	.	.	.	.	.	.	.	.	.
32cc/	32eee-\	.	.	.	.	.	.	.	.	.	.	.	.	.	.
32a- 32d/	32ff#\	.	.	.	.	.	.	.	.	.	.	.	.	.	.
32cc/	32eee-\	.	.	.	.	.	.	.	.	.	.	.	.	.	.
32a- 32d/	32ff#\	.	.	.	.	.	.	.	.	.	.	.	.	.	.
32cc/	32eee-\	.	.	.	.	.	.	.	.	.	.	.	.	.	.
32a- 32d/	32ff#\	.	.	.	.	.	.	.	.	.	.	.	.	.	.
32cc/	32eee-\	.	.	.	.	.	.	.	.	.	.	.	.	.	.
32a- 32d/	32ff#\	.	.	.	.	.	.	.	.	.	.	.	.	.	.
32cc/	32eee-\	.	.	.	.	.	.	.	.	.	.	.	.	.	.
32a- 32d/	32ff#\	.	.	.	.	.	.	.	.	.	.	.	.	.	.
32cc/JJJ	32eee-X\JJJ	[[	.	.	.	.	.	.	.	.	.	.	.	.	.
*Xtremolo	*Xtremolo	*	*	*	*	*	*	*	*	*	*	*	*	*	*
=179	=179	=179	=179	=179	=179	=179	=179	=179	=179	=179	=179	=179	=179	=179	=179
8cc 8a-X 8d/	8eee-X 8ff#X\	f	2.ryy	.	.	2.ryy	.	.	.	2.ryy	.	.	2.ryy	.	.
8r	[4eee-^^\	.	.	.	.	.	.	.	.	.	.	.	.	.	.
8r	.	.	.	.	.	.	.	.	.	.	.	.	.	.	.
4r	16eee-\LL]	.	.	.	.	.	.	.	.	.	.	.	.	.	.
.	(16ddd\	.	.	.	.	.	.	.	.	.	.	.	.	.	.
.	16ccc\	.	.	.	.	.	.	.	.	.	.	.	.	.	.
.	16aa-X\	.	.	.	.	.	.	.	.	.	.	.	.	.	.
8r	16gg\	.	.	.	.	.	.	.	.	.	.	.	.	.	.
.	16ff#\JJ)	.	.	.	.	.	.	.	.	.	.	.	.	.	.
*clefF4	*	*	*	*	*	*	*	*	*	*	*	*	*	*	*
!!LO:LB:g=original
=180	=180	=180	=180	=180	=180	=180	=180	=180	=180	=180	=180	=180	=180	=180	=180
!	!	!	!	!	!	!	!	!	!	!	!	!	!LO:TX:a:B:t=Selene.	!	!
2.r	[4.ee-X\	.	2.ryy	.	.	2.ryy	.	.	.	2.ryy	.	.	4r	.	.
.	.	.	.	.	.	.	.	.	.	.	.	.	8r	.	.
.	4ee-\]	.	.	.	.	.	.	.	.	.	.	.	4r	.	.
.	8r	.	.	.	.	.	.	.	.	.	.	.	8dd#X\	O	.
=181	=181	=181	=181	=181	=181	=181	=181	=181	=181	=181	=181	=181	=181	=181	=181
!	!	!	!	!	!	!	!	!	!	!	!	!	!LO:SIC:v:s=[4.dd#\	!	!
2.r	2.r	.	2.ryy	.	.	2.ryy	.	.	.	2.ryy	.	.	[4.dd\	Li-	.
!	!	!	!	!	!	!	!	!	!	!	!	!	!LO:SIC:v:s=4dd#\]	!	!
.	.	.	.	.	.	.	.	.	.	.	.	.	4dd\]	.	.
!	!	!	!	!	!	!	!	!	!	!	!	!	!LO:SIC:v:s=8dd#\	!	!
.	.	.	.	.	.	.	.	.	.	.	.	.	8dd\	-vio	.
=182	=182	=182	=182	=182	=182	=182	=182	=182	=182	=182	=182	=182	=182	=182	=182
2.BBn 2.BBBn^^/	2.f#X 2.d#X 2.An^^/	f	2.ryy	.	.	2.ryy	.	.	.	2.ryy	.	.	4.ff#X\	dro-	.
.	.	.	.	.	.	.	.	.	.	.	.	.	4a/	-ga,	.
.	.	.	.	.	.	.	.	.	.	.	.	.	8cc#X\	od-	.
=183	=183	=183	=183	=183	=183	=183	=183	=183	=183	=183	=183	=183	=183	=183	=183
2.BB 2.BBB^^/	2.g#X 2.e 2.G#X^^/	.	2.ryy	.	.	2.ryy	.	.	.	2.ryy	.	.	(4ee\	-ży-	.
.	.	.	.	.	.	.	.	.	.	.	.	.	8dd#X\)	.	.
.	.	.	.	.	.	.	.	.	.	.	.	.	4b\	-łaś	.
.	.	.	.	.	.	.	.	.	.	.	.	.	8g#X/	na-	.
=184	=184	=184	=184	=184	=184	=184	=184	=184	=184	=184	=184	=184	=184	=184	=184
[2.F#X [2.BB^^\	[2.a [2.d#X^^/	.	2.ryy	.	.	2.ryy	.	.	.	2.ryy	.	.	4.cc#X\	-resz-	.
.	.	.	.	.	.	.	.	.	.	.	.	.	[4.f#X/	-cie!	.
=185	=185	=185	=185	=185	=185	=185	=185	=185	=185	=185	=185	=185	=185	=185	=185
4F#] 4BB\]	4a] 4d#/]	.	2.ryy	.	.	2.ryy	.	.	.	2.ryy	.	.	4f#/]	.	.
8r	8r	.	.	.	.	.	.	.	.	.	.	.	8r	.	.
4r	4r	.	.	.	.	.	.	.	.	.	.	.	4r	.	.
8r	8B/	p	.	.	.	.	.	.	.	.	.	.	8r	.	.
!!LO:LB:g=original
=186||	=186||	=186||	=186||	=186||	=186||	=186||	=186||	=186||	=186||	=186||	=186||	=186||	=186||	=186||	=186||
*	*^	*	*	*	*	*	*	*	*	*	*	*	*	*	*
!	!	!	!	!	!	!	!	!	!	!	!LO:TX:a:t=Livia.	!	!	!	!	!
!	!LO:TX:a:B:t=Andante.	!	!	!	!	!	!	!	!	!	!LO:TX:a:B:t=Andante.	!	!	!	!	!
[2.BB [2.EE/	(8gn/L	(4.Gn\	.	2.ryy	.	.	2.ryy	.	.	.	2.r	.	.	2.ryy	.	.
.	8f#X/	.	.	.	.	.	.	.	.	.	.	.	.	.	.	.
.	8e/J	.	.	.	.	.	.	.	.	.	.	.	.	.	.	.
.	8d#X/L	4.A\)	.	.	.	.	.	.	.	.	.	.	.	.	.	.
.	8cn/	.	.	.	.	.	.	.	.	.	.	.	.	.	.	.
.	8d#/J)	.	.	.	.	.	.	.	.	.	.	.	.	.	.	.
=187	=187	=187	=187	=187	=187	=187	=187	=187	=187	=187	=187	=187	=187	=187	=187	=187
4.BB_ 4.EE/_	(16e/LL	[4.G\	.	2.ryy	.	.	2.ryy	.	.	.	2.r	.	.	2.ryy	.	.
.	16f#X/JJ	.	.	.	.	.	.	.	.	.	.	.	.	.	.	.
.	[4e/	.	.	.	.	.	.	.	.	.	.	.	.	.	.	.
4BB] 4EE/]	4e/])	4G\]	.	.	.	.	.	.	.	.	.	.	.	.	.	.
8r	8r	8ryy	.	.	.	.	.	.	.	.	.	.	.	.	.	.
*	*v	*v	*	*	*	*	*	*	*	*	*	*	*	*	*	*
=188	=188	=188	=188	=188	=188	=188	=188	=188	=188	=188	=188	=188	=188	=188	=188
2.r	2.r	.	2.ryy	.	.	2.ryy	.	.	.	4b\	Tak	p	2.ryy	.	.
.	.	.	.	.	.	.	.	.	.	8r	.	.	.	.	.
.	.	.	.	.	.	.	.	.	.	8g/	dzię-	.	.	.	.
.	.	.	.	.	.	.	.	.	.	8b\	-ki	.	.	.	.
.	.	.	.	.	.	.	.	.	.	8dd#X\	ci	.	.	.	.
=189	=189	=189	=189	=189	=189	=189	=189	=189	=189	=189	=189	=189	=189	=189	=189
2.r	2.r	.	2.ryy	.	.	2.ryy	.	.	.	4.ff#X\	mi-	.	2.ryy	.	.
.	.	.	.	.	.	.	.	.	.	4ee\	-ła...	.	.	.	.
.	.	.	.	.	.	.	.	.	.	8r	.	.	.	.	.
=190	=190	=190	=190	=190	=190	=190	=190	=190	=190	=190	=190	=190	=190	=190	=190
*	*^	*	*	*	*	*	*	*	*	*	*	*	*	*	*
2.E 2.AA/	(8cc/L	(4.c\	p	2.ryy	.	.	2.ryy	.	.	.	2.r	.	.	2.ryy	.	.
.	8b/	.	.	.	.	.	.	.	.	.	.	.	.	.	.	.
.	8a/J	.	.	.	.	.	.	.	.	.	.	.	.	.	.	.
.	8g#X/L	4.B\)	.	.	.	.	.	.	.	.	.	.	.	.	.	.
.	8f#X/	.	.	.	.	.	.	.	.	.	.	.	.	.	.	.
.	8g#/J	.	.	.	.	.	.	.	.	.	.	.	.	.	.	.
!!LO:LB:g=original
=191	=191	=191	=191	=191	=191	=191	=191	=191	=191	=191	=191	=191	=191	=191	=191	=191
*^	*	*	*	*	*	*	*	*	*	*	*	*	*	*	*	*
!	!	!	!	!	!	!	!	!	!	!	!	!	!	!	!LO:TX:a:B:t=Selene.	!	!
(4.E/	(4AA\	16a/LL	[4.c\	.	2.ryy	.	.	2.ryy	.	.	.	2.ryy	.	.	4r	.	.
.	.	16b/JJ	.	.	.	.	.	.	.	.	.	.	.	.	.	.	.
.	.	[4a/	.	.	.	.	.	.	.	.	.	.	.	.	.	.	.
.	8GGn\	.	.	.	.	.	.	.	.	.	.	.	.	.	8r	.	.
(4.E-X/)	[4.FFn\)	4.a/_)	4.c\_	.	.	.	.	.	.	.	.	.	.	.	4r	.	.
.	.	.	.	.	.	.	.	.	.	.	.	.	.	.	8ee-X\	Czyś	.
*v	*v	*	*	*	*	*	*	*	*	*	*	*	*	*	*	*	*
*	*v	*v	*	*	*	*	*	*	*	*	*	*	*	*	*	*
=192	=192	=192	=192	=192	=192	=192	=192	=192	=192	=192	=192	=192	=192	=192	=192
4E 4FF/])	4a] 4c/]	.	2.ryy	.	.	2.ryy	.	.	.	2.ryy	.	.	(4cc\	zdro-	.
8r	8r	.	.	.	.	.	.	.	.	.	.	.	8b-X\)	.	.
4r	4r	.	.	.	.	.	.	.	.	.	.	.	8a/	-wa,	.
.	.	.	.	.	.	.	.	.	.	.	.	.	8r	.	.
8r	8r	.	.	.	.	.	.	.	.	.	.	.	8ee-X\	skrze-	.
=193	=193	=193	=193	=193	=193	=193	=193	=193	=193	=193	=193	=193	=193	=193	=193
!	!LO:S:s=2:note:problem=note-level slur	!	!	!	!	!	!	!	!	!	!	!	!	!	!
(4.D/	(4.a (4.f#X (4.c/	.	2.ryy	.	.	2.ryy	.	.	.	2.ryy	.	.	4.dd\	-pio-	.
8GG/)	8b-X 8g 8B-X/)))	.	.	.	.	.	.	.	.	.	.	.	4b-X\	-na?	.
8r	8r	.	.	.	.	.	.	.	.	.	.	.	.	.	.
8r	(8ddd\	p	.	.	.	.	.	.	.	.	.	.	8r	.	.
=194	=194	=194	=194	=194	=194	=194	=194	=194	=194	=194	=194	=194	=194	=194	=194
4r	4bb-X\)	.	2.ryy	.	.	2.ryy	.	.	.	2.ryy	.	.	2.r	.	.
8r	(8aa 8dd 8cc\	.	.	.	.	.	.	.	.	.	.	.	.	.	.
4r	4gg 4dd 4b-X\)	.	.	.	.	.	.	.	.	.	.	.	.	.	.
8f#X 8d\	8aa 8ee-X 8cc\	.	.	.	.	.	.	.	.	.	.	.	.	.	.
=195	=195	=195	=195	=195	=195	=195	=195	=195	=195	=195	=195	=195	=195	=195	=195
[4.g [4.d [4.G\	[4.bb-X [4.dd [4.b-X\	.	2.ryy	.	.	2.ryy	.	.	.	2.ryy	.	.	4r	.	.
.	.	.	.	.	.	.	.	.	.	.	.	.	8r	.	.
4g] 4d] 4G\]	4bb-] 4dd] 4b-\]	.	.	.	.	.	.	.	.	.	.	.	4r	.	.
8r	8r	.	.	.	.	.	.	.	.	.	.	.	8dd\	Spo-	.
!!LO:PB:g=original
=196	=196	=196	=196	=196	=196	=196	=196	=196	=196	=196	=196	=196	=196	=196	=196
2.r	2.r	.	2.ryy	.	.	2.ryy	.	.	.	2.ryy	.	.	(4b-X\	-czy-	.
.	.	.	.	.	.	.	.	.	.	.	.	.	8a/)	.	.
.	.	.	.	.	.	.	.	.	.	.	.	.	4g/	-waj	.
.	.	.	.	.	.	.	.	.	.	.	.	.	8dd\	spo-	.
=197	=197	=197	=197	=197	=197	=197	=197	=197	=197	=197	=197	=197	=197	=197	=197
2.BB-X 2.BBB-X/	(4.fn 4.d (4.A-X/	p	2.ryy	.	.	2.ryy	.	.	.	2.ryy	.	.	2.ffn\	-koj-	.
.	4.e-X 4.c 4.G/))	.	.	.	.	.	.	.	.	.	.	.	.	.	.
=198	=198	=198	=198	=198	=198	=198	=198	=198	=198	=198	=198	=198	=198	=198	=198
[<4.BB-X [4.BBB-X\	[4.d [>4.B-X< [>4.F</	.	2.ryy	.	.	2.ryy	.	.	.	2.ryy	.	.	[4.b-X\	-nie!	.
4BB-] 4BBB-\]	4d] 4B-<] 4F</]	.	.	.	.	.	.	.	.	.	.	.	4b-\]	.	.
8r	8r	.	.	.	.	.	.	.	.	.	.	.	8r	.	.
=199	=199	=199	=199	=199	=199	=199	=199	=199	=199	=199	=199	=199	=199	=199	=199
2.r	2.b-X\	mf	2.ryy	.	.	2.ryy	.	.	.	2.ryy	.	.	2.r	.	.
=200	=200	=200	=200	=200	=200	=200	=200	=200	=200	=200	=200	=200	=200	=200	=200
2.r	(8g/L	.	2.ryy	.	.	2.ryy	.	.	.	2.ryy	.	.	2.r	.	.
.	8f/	.	.	.	.	.	.	.	.	.	.	.	.	.	.
.	8d/J	.	.	.	.	.	.	.	.	.	.	.	.	.	.
.	(8qf/	.	.	.	.	.	.	.	.	.	.	.	.	.	.
.	8e-X/L)	.	.	.	.	.	.	.	.	.	.	.	.	.	.
.	8c/	.	.	.	.	.	.	.	.	.	.	.	.	.	.
.	16d/L	.	.	.	.	.	.	.	.	.	.	.	.	.	.
.	16c/JJ)	.	.	.	.	.	.	.	.	.	.	.	.	.	.
=201	=201	=201	=201	=201	=201	=201	=201	=201	=201	=201	=201	=201	=201	=201	=201
2.r;	[4.B-X/	.	2.ryy	.	.	2.ryy	.	.	.	4r	.	.	2.ryy	.	.
.	.	.	.	.	.	.	.	.	.	8r	.	.	.	.	.
.	8B-/]	.	.	.	.	.	.	.	.	4r;	.	.	.	.	.
.	8r;	.	.	.	.	.	.	.	.	.	.	.	.	.	.
*	*	*	*	*	*	*	*	*	*	*clefG2	*	*	*	*	*
!	!	!	!	!	!	!	!	!	!	!	!	!	!LO:TX:a:B:t=Livia.	!	!
.	8r	.	.	.	.	.	.	.	.	8b-X\	Ta	p	.	.	.
!!LO:LB:g=original
=202||	=202||	=202||	=202||	=202||	=202||	=202||	=202||	=202||	=202||	=202||	=202||	=202||	=202||	=202||	=202||
*M2/4	*M2/4	*	*M2/4	*	*	*M2/4	*	*	*	*M2/4	*	*	*M2/4	*	*
!	!LO:TX:a:B:t=Moderato.	!	!	!	!	!	!	!	!	!LO:TX:a:B:t=Moderato.	!	!	!	!	!
[2BB-X [2EE-X/	(16G/LL	.	2ryy	.	.	2ryy	.	.	.	[2ee-X\	pieśń	.	2ryy	.	.
.	16B-X/	.	.	.	.	.	.	.	.	.	.	.	.	.	.
.	16G/	.	.	.	.	.	.	.	.	.	.	.	.	.	.
.	16B-/JJ	.	.	.	.	.	.	.	.	.	.	.	.	.	.
.	16A-X/LL	.	.	.	.	.	.	.	.	.	.	.	.	.	.
.	16c/	.	.	.	.	.	.	.	.	.	.	.	.	.	.
.	16A-/	.	.	.	.	.	.	.	.	.	.	.	.	.	.
.	16c/JJ	.	.	.	.	.	.	.	.	.	.	.	.	.	.
=203	=203	=203	=203	=203	=203	=203	=203	=203	=203	=203	=203	=203	=203	=203	=203
2BB-] 2EE-/]	16e-X/LL	.	2ryy	.	.	2ryy	.	.	.	4ee-\]	.	.	2ryy	.	.
.	16g/	.	.	.	.	.	.	.	.	.	.	.	.	.	.
.	16e-/	.	.	.	.	.	.	.	.	.	.	.	.	.	.
.	16g/JJ	.	.	.	.	.	.	.	.	.	.	.	.	.	.
.	16d/LL	.	.	.	.	.	.	.	.	8.b-X\	u-	.	.	.	.
.	16f/	.	.	.	.	.	.	.	.	.	.	.	.	.	.
.	16d/	.	.	.	.	.	.	.	.	.	.	.	.	.	.
.	16f/JJ)	.	.	.	.	.	.	.	.	16b-\	-lu-	.	.	.	.
=204	=204	=204	=204	=204	=204	=204	=204	=204	=204	=204	=204	=204	=204	=204	=204
!LO:SIC:v:s=[2BB-X [2EE-\	!	!	!	!	!	!	!	!	!	!	!	!	!	!	!
[2BB-X [2EE\	(16G</LL	.	2ryy	.	.	2ryy	.	.	.	2cc\	-bio-	.	2ryy	.	.
.	16B-X</	.	.	.	.	.	.	.	.	.	.	.	.	.	.
.	16G</	.	.	.	.	.	.	.	.	.	.	.	.	.	.
.	16B-</JJ	.	.	.	.	.	.	.	.	.	.	.	.	.	.
.	16A-X</LL	.	.	.	.	.	.	.	.	.	.	.	.	.	.
.	16c</	.	.	.	.	.	.	.	.	.	.	.	.	.	.
.	16A-</	.	.	.	.	.	.	.	.	.	.	.	.	.	.
.	16c</JJ	.	.	.	.	.	.	.	.	.	.	.	.	.	.
=205	=205	=205	=205	=205	=205	=205	=205	=205	=205	=205	=205	=205	=205	=205	=205
!LO:SIC:v:s=2BB-] 2EE-\]	!	!	!	!	!	!	!	!	!	!	!	!	!	!	!
2BB-] 2EE\]	16e-X/LL	.	2ryy	.	.	2ryy	.	.	.	4b-X\	-na	.	2ryy	.	.
.	16g/	.	.	.	.	.	.	.	.	.	.	.	.	.	.
.	16e-/	.	.	.	.	.	.	.	.	.	.	.	.	.	.
.	16g/JJ	.	.	.	.	.	.	.	.	.	.	.	.	.	.
.	16d/LL	.	.	.	.	.	.	.	.	4r	.	.	.	.	.
.	16f/	.	.	.	.	.	.	.	.	.	.	.	.	.	.
.	16d/	.	.	.	.	.	.	.	.	.	.	.	.	.	.
.	16f/JJ)	.	.	.	.	.	.	.	.	.	.	.	.	.	.
!!LO:LB:g=original
=206	=206	=206	=206	=206	=206	=206	=206	=206	=206	=206	=206	=206	=206	=206	=206
!	!	!	!	!	!	!	!	!	!	!	!	!	!LO:TX:a:B:t=Selene.	!	!
[2BB-X [2EE-X/	[2b-X [>2d-X [2G/	.	2ryy	.	.	2ryy	.	.	.	2ryy	.	.	2r	.	.
=207	=207	=207	=207	=207	=207	=207	=207	=207	=207	=207	=207	=207	=207	=207	=207
4BB-] 4EE-/]	4b-] 4d-] 4G/]	.	2ryy	.	.	2ryy	.	.	.	2ryy	.	.	[2ee-X\	No-	f
4r	4r	.	.	.	.	.	.	.	.	.	.	.	.	.	.
=208	=208	=208	=208	=208	=208	=208	=208	=208	=208	=208	=208	=208	=208	=208	=208
2r	2r	.	2ryy	.	.	2ryy	.	.	.	2ryy	.	.	4ee-\]	.	.
.	.	.	.	.	.	.	.	.	.	.	.	.	8.g/	-wą	.
.	.	.	.	.	.	.	.	.	.	.	.	.	16a-X/	cię	.
=209	=209	=209	=209	=209	=209	=209	=209	=209	=209	=209	=209	=209	=209	=209	=209
2r	2r	.	2ryy	.	.	2ryy	.	.	.	2ryy	.	.	(8b-X\L	pieś-	.
.	.	.	.	.	.	.	.	.	.	.	.	.	8cc\J)	.	.
.	.	.	.	.	.	.	.	.	.	.	.	.	8.dd-X\	-nią	.
.	.	.	.	.	.	.	.	.	.	.	.	.	16ee-X\	za-	.
=210	=210	=210	=210	=210	=210	=210	=210	=210	=210	=210	=210	=210	=210	=210	=210
*	*^	*	*	*	*	*	*	*	*	*	*	*	*	*	*
[2F#X [2FF#X/	(4.a#X/	[2e [2A#X\	mf	2ryy	.	.	2ryy	.	.	.	2ryy	.	.	2een\	-ba-	.
.	8g#X/	.	.	.	.	.	.	.	.	.	.	.	.	.	.	.
=211	=211	=211	=211	=211	=211	=211	=211	=211	=211	=211	=211	=211	=211	=211	=211	=211
4F#] 4FF#/]	4f#X/)	4e] 4A#\]	.	2ryy	.	.	2ryy	.	.	.	2ryy	.	.	4cc#X\	-wim.	.
4r	4r	4ryy	.	.	.	.	.	.	.	.	.	.	.	4r	.	.
*	*v	*v	*	*	*	*	*	*	*	*	*	*	*	*	*	*
!!LO:LB:g=original
=212||	=212||	=212||	=212||	=212||	=212||	=212||	=212||	=212||	=212||	=212||	=212||	=212||	=212||	=212||	=212||
*k[f#c#g#d#]	*k[f#c#g#d#]	*	*k[f#c#g#d#]	*	*	*k[f#c#g#d#]	*	*	*	*k[f#c#g#d#]	*	*	*k[f#c#g#d#]	*	*
*M3/4	*M3/4	*	*M3/4	*	*	*M3/4	*	*	*	*M3/4	*	*	*M3/4	*	*
!	!LO:TX:a:B:t=Moderato con moto.	!	!	!	!	!	!	!	!	!	!	!	!LO:TX:a:B:t=Moderato con moto.	!	!
8C#L 8FF#/	2.r	p	2.ryy	.	.	2.ryy	.	.	.	2.ryy	.	.	2.r	.	.
8C# 8FF#/	.	.	.	.	.	.	.	.	.	.	.	.	.	.	.
8C# 8FF#/	.	.	.	.	.	.	.	.	.	.	.	.	.	.	.
8C# 8FF#/	.	.	.	.	.	.	.	.	.	.	.	.	.	.	.
8C# 8FF#/	.	.	.	.	.	.	.	.	.	.	.	.	.	.	.
8C#J 8FF#/	.	.	.	.	.	.	.	.	.	.	.	.	.	.	.
=213	=213	=213	=213	=213	=213	=213	=213	=213	=213	=213	=213	=213	=213	=213	=213
8C#L 8FF#\	(16c#<LL 16G#< 16E</	.	2.ryy	.	.	2.ryy	.	.	.	2.ryy	.	.	2.r	.	.
.	16d#</	.	.	.	.	.	.	.	.	.	.	.	.	.	.
8C# 8FF#\	16c#</	.	.	.	.	.	.	.	.	.	.	.	.	.	.
.	16d#</JJ	.	.	.	.	.	.	.	.	.	.	.	.	.	.
8C# 8FF#\	16eLL 16B< 16G#</	.	.	.	.	.	.	.	.	.	.	.	.	.	.
.	16d#/	.	.	.	.	.	.	.	.	.	.	.	.	.	.
8C# 8FF#\	16e/	.	.	.	.	.	.	.	.	.	.	.	.	.	.
.	16f#/JJ	.	.	.	.	.	.	.	.	.	.	.	.	.	.
8C# 8FF#\	16g#LL 16e 16B/	.	.	.	.	.	.	.	.	.	.	.	.	.	.
.	16a#X/	.	.	.	.	.	.	.	.	.	.	.	.	.	.
8C#J 8FF#\	16g#/	.	.	.	.	.	.	.	.	.	.	.	.	.	.
.	16b/JJ)	<	.	.	.	.	.	.	.	.	.	.	.	.	.
=214	=214	=214	=214	=214	=214	=214	=214	=214	=214	=214	=214	=214	=214	=214	=214
8F#L 8C# 8FF#/	(16a#XLL 16e 16c#/	.	2.ryy	.	.	2.ryy	.	.	.	2.ryy	.	.	2.r	.	.
.	16g#/	.	.	.	.	.	.	.	.	.	.	.	.	.	.
8F# 8C# 8FF#/	16a#/	.	.	.	.	.	.	.	.	.	.	.	.	.	.
.	16b/JJ	.	.	.	.	.	.	.	.	.	.	.	.	.	.
8F# 8C# 8FF#/	16cc#LL 16g# 16e/	.	.	.	.	.	.	.	.	.	.	.	.	.	.
.	16dd#/	.	.	.	.	.	.	.	.	.	.	.	.	.	.
8F# 8C# 8FF#/	16cc#/	.	.	.	.	.	.	.	.	.	.	.	.	.	.
.	16dd#/JJ	.	.	.	.	.	.	.	.	.	.	.	.	.	.
8F# 8C# 8FF#/	16eeLL 16b 16g#\	[	.	.	.	.	.	.	.	.	.	.	.	.	.
.	16dd#\	.	.	.	.	.	.	.	.	.	.	.	.	.	.
8F#J 8C# 8FF#/	16ee\	.	.	.	.	.	.	.	.	.	.	.	.	.	.
.	16gg#\JJ)	.	.	.	.	.	.	.	.	.	.	.	.	.	.
=215	=215	=215	=215	=215	=215	=215	=215	=215	=215	=215	=215	=215	=215	=215	=215
4F# 4C# 4FF#^^/	4ff# 4ee 4a#X^^\	.	2.ryy	.	.	2.ryy	.	.	.	2.ryy	.	.	4r	.	.
4r	4r	.	.	.	.	.	.	.	.	.	.	.	4r	.	.
4r	4r	.	.	.	.	.	.	.	.	.	.	.	4cc#\	Hej	f
=216	=216	=216	=216	=216	=216	=216	=216	=216	=216	=216	=216	=216	=216	=216	=216
2.r	2.r	.	2.ryy	.	.	2.ryy	.	.	.	2.ryy	.	.	[2.ff#\	spiesz-	.
=217	=217	=217	=217	=217	=217	=217	=217	=217	=217	=217	=217	=217	=217	=217	=217
8BBL 8BBB/	(>16d#LL 16An 16F#/	p	2.ryy	.	.	2.ryy	.	.	.	2.ryy	.	.	2.ff#\]	.	.
.	16e/	.	.	.	.	.	.	.	.	.	.	.	.	.	.
8BB 8BBB/	16d#/	.	.	.	.	.	.	.	.	.	.	.	.	.	.
.	16e/JJ	.	.	.	.	.	.	.	.	.	.	.	.	.	.
8BB 8BBB/	16f#LL 16c# 16A/	.	.	.	.	.	.	.	.	.	.	.	.	.	.
.	16e/	.	.	.	.	.	.	.	.	.	.	.	.	.	.
8BB 8BBB/	16f#/	.	.	.	.	.	.	.	.	.	.	.	.	.	.
.	16g#/JJ	.	.	.	.	.	.	.	.	.	.	.	.	.	.
8BB 8BBB/	16aLL 16e 16c#/	<	.	.	.	.	.	.	.	.	.	.	.	.	.
.	16b/	.	.	.	.	.	.	.	.	.	.	.	.	.	.
8BBJ 8BBB/	16a/	.	.	.	.	.	.	.	.	.	.	.	.	.	.
.	16cc#/JJ)	.	.	.	.	.	.	.	.	.	.	.	.	.	.
!!LO:LB:g=original
=218	=218	=218	=218	=218	=218	=218	=218	=218	=218	=218	=218	=218	=218	=218	=218
8BBL 8BBB/	(16dd#LL 16a 16f#\	.	2.ryy	.	.	2.ryy	.	.	.	2.ryy	.	.	2b\	-cie!	.
.	16cc#\	.	.	.	.	.	.	.	.	.	.	.	.	.	.
8BB 8BBB/	16dd#\	.	.	.	.	.	.	.	.	.	.	.	.	.	.
.	16ee\JJ	.	.	.	.	.	.	.	.	.	.	.	.	.	.
8BB 8BBB/	16ff#LL 16cc# 16a\	<	.	.	.	.	.	.	.	.	.	.	.	.	.
.	16gg#\	.	.	.	.	.	.	.	.	.	.	.	.	.	.
8BB 8BBB/	16ff#\	.	.	.	.	.	.	.	.	.	.	.	.	.	.
.	16gg#\JJ	.	.	.	.	.	.	.	.	.	.	.	.	.	.
8BB 8BBB/	16aaLL 16ee 16cc#\	.	.	.	.	.	.	.	.	.	.	.	4r	.	.
.	16bb\	.	.	.	.	.	.	.	.	.	.	.	.	.	.
8BBJ 8BBB/	16aa\	.	.	.	.	.	.	.	.	.	.	.	.	.	.
.	16ccc#\JJ)	[	.	.	.	.	.	.	.	.	.	.	.	.	.
=219	=219	=219	=219	=219	=219	=219	=219	=219	=219	=219	=219	=219	=219	=219	=219
8BB 8BBB^^/	8bb 8ff# 8dd# 8b^^\	f	2.ryy	.	.	2.ryy	.	.	.	2.ryy	.	.	2.r	.	.
*clefG2	*	*	*	*	*	*	*	*	*	*	*	*	*	*	*
8b'/L	8bb'\L	.	.	.	.	.	.	.	.	.	.	.	.	.	.
8b'/	8bb'\	.	.	.	.	.	.	.	.	.	.	.	.	.	.
8f#'/J	8ff#'\J	.	.	.	.	.	.	.	.	.	.	.	.	.	.
(16qqf#/LL	(16qqff#/LL	.	.	.	.	.	.	.	.	.	.	.	.	.	.
16qqg#/JJ	16qqgg#/JJ	.	.	.	.	.	.	.	.	.	.	.	.	.	.
8f#'/L)	8ff#'\L)	.	.	.	.	.	.	.	.	.	.	.	.	.	.
8B'/J	8b'\J	.	.	.	.	.	.	.	.	.	.	.	.	.	.
*clefF4	*	*	*	*	*	*	*	*	*	*	*	*	*	*	*
=220	=220	=220	=220	=220	=220	=220	=220	=220	=220	=220	=220	=220	=220	=220	=220
8BL 8F# 8BB^^\	8bL 8f# 8d#^^/	.	2.ryy	.	.	2.ryy	.	.	.	2.ryy	.	.	2.r	.	.
8B'\J	8b'/J	.	.	.	.	.	.	.	.	.	.	.	.	.	.
8B'\L	8b'/L	.	.	.	.	.	.	.	.	.	.	.	.	.	.
8F#'\J	8f#'/J	.	.	.	.	.	.	.	.	.	.	.	.	.	.
(16qqF#/LL	(16qqf#/LL	.	.	.	.	.	.	.	.	.	.	.	.	.	.
16qqG#/JJ	16qqg#/JJ	.	.	.	.	.	.	.	.	.	.	.	.	.	.
8F#'\L)	8f#'/L)	.	.	.	.	.	.	.	.	.	.	.	.	.	.
8BB'\J	8B'/J	.	.	.	.	.	.	.	.	.	.	.	.	.	.
*	*clefF4	*	*	*	*	*	*	*	*	*	*	*	*	*	*
=221	=221	=221	=221	=221	=221	=221	=221	=221	=221	=221	=221	=221	=221	=221	=221
8BBL 8FF# 8BBB^^/	8BL 8F# 8D#^^\	.	2.ryy	.	.	2.ryy	.	.	.	2.ryy	.	.	2.r	.	.
8BB'/J	8B'\J	.	.	.	.	.	.	.	.	.	.	.	.	.	.
8BB'/L	8B'\L	.	.	.	.	.	.	.	.	.	.	.	.	.	.
8FF#'/J	8F#'\J	.	.	.	.	.	.	.	.	.	.	.	.	.	.
(16qqFF#/LL	(16qqF#/LL	.	.	.	.	.	.	.	.	.	.	.	.	.	.
16qqGG#/JJ	16qqG#/JJ	.	.	.	.	.	.	.	.	.	.	.	.	.	.
8FF#'^^/L)	8F#^^\L)	.	.	.	.	.	.	.	.	.	.	.	.	.	.
8BBB'/J	8BB'\J	.	.	.	.	.	.	.	.	.	.	.	.	.	.
=222	=222	=222	=222	=222	=222	=222	=222	=222	=222	=222	=222	=222	=222	=222	=222
8BBB'/L	8BB'\L	.	2.ryy	.	.	2.ryy	.	.	.	2.ryy	.	.	2.r	.	.
8CC#'/J	8c#J 8C#'\	.	.	.	.	.	.	.	.	.	.	.	.	.	.
8FFF#'/L	8F#L 8FF#'\	.	.	.	.	.	.	.	.	.	.	.	.	.	.
8CC#'/J	8c#J 8C#'\	.	.	.	.	.	.	.	.	.	.	.	.	.	.
8BBB'/L	8B 8BB'\	.	.	.	.	.	.	.	.	.	.	.	.	.	.
8BBJ 8BBB'/	8r	.	.	.	.	.	.	.	.	.	.	.	.	.	.
==	==	==	==	==	==	==	==	==	==	==	==	==	==	==	==
*-	*-	*-	*-	*-	*-	*-	*-	*-	*-	*-	*-	*-	*-	*-	*-
!!!system-decoration: <s1,s2>[(s3,s4)]{(klav)}
!!!RDF**kern: > = above
!!!RDF**kern: < = below
!!!ENC: Berenika Jozajtis
!!!END: 2022-10-12
!!!ENC: Andrzej Kubiczek
!!!END: 2022-10-24
!!!YEC: Copyright 2022 Narodowy Instytut Fryderyka Chopina (https://polishscores.org)
!!!YEM: License CC-BY-4.0 (https://creativecommons.org/licenses/by/4.0)
